prs-group/Contrasting-Historical-and-Physical-Perspectives-in-Asymmetric-Catalysis/datasets/Sunoj_JPC.csv
index;name;ee;Area-L;Area-N;Area-S;B1-N;B1-R1--L;B1-R1-S;B1-R2-L;B1-R2-S;B1-R3-S;B1-R4-S;B5-N;B5-R1--L;B5-R1-S;B5-R2-L;B5-R2-S;B5-R3-S;B5-R4-S;BA1-2-3-N;BA1-2-4-N;BA1-2-8-L;BA1-5-2-S;BA1-5-6-S;BA2-5-6-S;BA2-8-7-L;BA3-2-4-N;BA3-6-4-S;BA3-6-5-S;BA4-6-5-S;BL1-2-L;BL1-2-N;BL1-5-S;BL1-6-L;BL2-3-N;BL2-4-N;BL2-5-S;BL2-8-L;BL3-6-S;BL4-6-S;BL5-6-S;BL7-11-L;BL7-8-L;DA1-2-8-7-L;DA1-5-6-4-S;DA2-5-6-3-S;DA21-11-7-8-L;DA22-11-7-8-L;DA7-11-10-9-L;Dp-A;Dp-N;Dp-S;HOMO-A;HOMO-L;HOMO-N;HOMO-S;L-N;L-R1--L;L-R1-S;L-R2-L;L-R2-S;L-R3-S;L-R4-S;LUMO-A;LUMO-L;LUMO-N;LUMO-S;M.Wt.-N;NB1-2-S;NB1-3-N;NB1-3-S;NB1-4-N;NB2-4-S;NB3-4-N;NB3-4-S;NMR11-L;NMR2-L;NMR3-N;NMR4-N;NMR4-S;NMR5-S;NMR6-L;NMR6-S;NMR8-L;Ovality-L;Ovality-N;Ovality-S;PSA-A;PSA-L;PSA-N;PSA-S;Rot-PF-L;Rot-PF-N;Rot-PF-S;Rx-A;Rx-L;Rx-N;Rx-S;Ry-A;Ry-L;Ry-N;Ry-S;Rz-A;Rz-L;Rz-N;Rz-S;TranS-PF-N;TranS-PF-S;Trans-PF-L;VF(N-C)ox-L;VF5-6-S;VI(N-C)ox-L;VI5-6-S;Vib-PF-L;Vib-PF-N;Vib-PF-S;Volume-L;Volume-N;Volume-S;area-A;dp-L;ovality-A;q1-L;q1-N;q11-L;q2-L;q2-N;q3-N;q4-N;q4-S;q5-S;q6-L;q6-S;q7-L;q8-L;rot-PF-A;trans-PF-A;vibr-PF-A;volume-A
0;real0;91;361.5;168.12;193.61;1.8;1;1;1.7;1;1.7;1.504;3.149;1;1;3.151;1;3.157;3.275;120.9633334;120.9628307;116.2565149;116.3214871;121.3959825;122.2760622;126.570416;118.0738359;116.5427351;120.7446801;122.7125154;1.339178194;1.571485088;1.085911837;1.328222238;1.400533582;1.400537834;1.085236558;1.482876059;1.491297247;1.511103656;1.337966689;1.469962482;1.26899773;4.738410346;177.7241777;178.7828065;101.1837851;138.8012525;18.36736317;3.2207;5.8768;1.7023;-0.39041;-0.28923;-0.29654;-0.27605;7.811;2;2;6.353;2;6.371;4.745;-0.013;-0.03216;0.00688;0.01205;156.376;1.844458873;2.58761616;2.689864302;2.58761339;2.757037113;2.401915888;2.553708553;116.5994;33.2137;47.3923;47.3926;160.9221;73.1084;34.3838;35.9798;23.6482;1.5;1.25;1.28;92.648;21.171;37.436;20.112;16.611245;13.736565;13.860476;0.78283;0.43034;3.65774;2.71406;0.17747;0.08372;0.52514;0.54237;0.16116;0.07797;0.45922;0.4677;18.154052;18.075842;19.441712;1780.348;1738.7;217.8748;27.7501;56.985201;37.46581;38.563601;350.86;146.26;174.56;226.89;4.8547;1.49;-0.44972;1.18512;-0.1172;0.14578;-0.42352;-0.2037;-0.2037;-0.52502;-0.45685;0.04902;-0.03202;-0.51163;0.57132;15.573398;19.41175;51.150329;177.28
1;real1;93;361.5;168.12;223.23;1.8;1;1;1.7;1;1.77;1.504;3.149;1;1;3.151;1;3.171;3.276;120.9633334;120.9628307;116.2565149;116.3751105;121.3432791;122.274884;126.570416;118.0738359;116.3166171;121.0613326;122.6218785;1.339178194;1.571485088;1.085994391;1.328222238;1.400533582;1.400537834;1.085187372;1.482876059;1.48929995;1.511402398;1.338351467;1.469962482;1.26899773;4.738410346;177.2674857;178.0889885;101.1837851;138.8012525;18.36736317;3.2207;5.8768;2.9789;-0.39041;-0.28923;-0.29654;-0.25822;7.811;2;2;6.353;2;8.441;4.745;-0.013;-0.03216;0.00688;0.01919;156.376;1.845023017;2.58761616;2.694818499;2.58761339;2.755827327;2.401915888;2.549150401;116.5994;33.2137;47.3923;47.3926;160.5759;75.7579;34.3838;36.5606;23.6482;1.5;1.25;1.34;92.648;21.171;37.436;27.113;16.611245;13.736565;14.444545;0.78283;0.43034;3.65774;2.44056;0.17747;0.08372;0.52514;0.31006;0.16116;0.07797;0.45922;0.2829;18.154052;18.352637;19.441712;1780.348;1738.84;217.8748;41.9531;56.985201;37.46581;42.088318;350.86;146.26;201.53;226.89;4.8547;1.49;-0.44972;1.18512;-0.1172;0.14578;-0.42352;-0.2037;-0.2037;-0.52536;-0.46667;0.04902;-0.02817;-0.51163;0.57132;15.573398;19.41175;51.150329;177.28
2;real2;83;361.5;168.12;209.2;1.8;1;1;1.7;1;1.763;1.504;3.149;1;1;3.151;1;3.156;3.273;120.9633334;120.9628307;116.2565149;116.32925;121.4699849;122.1934035;126.570416;118.0738359;116.4931629;120.6583998;122.8482092;1.339178194;1.571485088;1.085884893;1.328222238;1.400533582;1.400537834;1.085167506;1.482876059;1.490394908;1.510829866;1.337734113;1.469962482;1.26899773;4.738410346;177.6674805;178.8708753;101.1837851;138.8012525;18.36736317;3.2207;5.8768;4.0841;-0.39041;-0.28923;-0.29654;-0.27589;7.811;2;2;6.353;2;7.815;4.745;-0.013;-0.03216;0.00688;0.00458;156.376;1.84445491;2.58761616;2.688577584;2.58761339;2.757915704;2.401915888;2.55202659;116.5994;33.2137;47.3923;47.3926;160.9873;72.134;34.3838;37.3682;23.6482;1.5;1.25;1.32;92.648;21.171;37.436;20.108;16.611245;13.736565;14.457839;0.78283;0.43034;3.65774;2.46685;0.17747;0.08372;0.52514;0.30493;0.16116;0.07797;0.45922;0.27713;18.154052;18.385545;19.441712;1780.348;1739.79;217.8748;27.4873;56.985201;37.46581;40.836727;350.86;146.26;188.16;226.89;4.8547;1.49;-0.44972;1.18512;-0.1172;0.14578;-0.42352;-0.2037;-0.2037;-0.52562;-0.45098;0.04902;-0.03396;-0.51163;0.57132;15.573398;19.41175;51.150329;177.28
3;real3;80;361.5;168.12;199.27;1.8;1;1;1.7;1;1.705;1.879;3.149;1;1;3.151;1;3.152;4.021;120.9633334;120.9628307;116.2565149;116.3211624;121.4298928;122.2430098;126.570416;118.0738359;116.4943032;120.7657374;122.7398945;1.339178194;1.571485088;1.085918073;1.328222238;1.400533582;1.400537834;1.08516462;1.482876059;1.490837163;1.510996919;1.337895097;1.469962482;1.26899773;4.738410346;177.620001;178.6350425;101.1837851;138.8012525;18.36736317;3.2207;5.8768;3.2485;-0.39041;-0.28923;-0.29654;-0.27347;7.811;2;2;6.353;2;6.948;4.745;-0.013;-0.03216;0.00688;0.01435;156.376;1.84439982;2.58761616;2.690560068;2.58761339;2.756877472;2.401915888;2.552559807;116.5994;33.2137;47.3923;47.3926;160.9289;73.4402;34.3838;37.0099;23.6482;1.5;1.25;1.3;92.648;21.171;37.436;20.11;16.611245;13.736565;14.19575;0.78283;0.43034;3.65774;2.55788;0.17747;0.08372;0.52514;0.39342;0.16116;0.07797;0.45922;0.34988;18.154052;18.247823;19.441712;1780.348;1739.67;217.8748;35.7474;56.985201;37.46581;39.80383;350.86;146.26;179.11;226.89;4.8547;1.49;-0.44972;1.18512;-0.1172;0.14578;-0.42352;-0.2037;-0.2037;-0.52526;-0.45776;0.04902;-0.03119;-0.51163;0.57132;15.573398;19.41175;51.150329;177.28
4;real4;87;361.5;168.12;246.07;1.8;1;1;1.7;1;1.813;1.504;3.149;1;1;3.151;1;3.219;3.273;120.9633334;120.9628307;116.2565149;116.3099897;121.6504727;122.0292848;126.570416;118.0738359;116.5557946;120.7124203;122.7305;1.339178194;1.571485088;1.085684693;1.328222238;1.400533582;1.400537834;1.085196975;1.482876059;1.49006906;1.510848461;1.33792649;1.469962482;1.26899773;4.738410346;177.5668421;179.2016353;101.1837851;138.8012525;18.36736317;3.2207;5.8768;3.2055;-0.39041;-0.28923;-0.29654;-0.28322;7.811;2;2;6.353;2;9.266;4.744;-0.013;-0.03216;0.00688;-0.02221;156.376;1.84411735;2.58761616;2.692671542;2.58761339;2.752921775;2.401915888;2.552628846;116.5994;33.2137;47.3923;47.3926;160.6789;70.6606;34.3838;37.1729;23.6482;1.5;1.25;1.39;92.648;21.171;37.436;40.021;16.611245;13.736565;14.964467;0.78283;0.43034;3.65774;1.76068;0.17747;0.08372;0.52514;0.21789;0.16116;0.07797;0.45922;0.19726;18.154052;18.571625;19.441712;1780.348;1740.26;217.8748;25.49;56.985201;37.46581;45.244387;350.86;146.26;222.43;226.89;4.8547;1.49;-0.44972;1.18512;-0.1172;0.14578;-0.42352;-0.2037;-0.2037;-0.52631;-0.44274;0.04902;-0.03773;-0.51163;0.57132;15.573398;19.41175;51.150329;177.28
5;real5;92;361.5;168.12;222.94;1.8;1;1;1.7;1;1.731;1.504;3.149;1;1;3.151;1;4.558;3.275;120.9633334;120.9628307;116.2565149;116.2934498;121.4717413;122.2267096;126.570416;118.0738359;116.6459855;120.6592722;122.6942723;1.339178194;1.571485088;1.085760873;1.328222238;1.400533582;1.400537834;1.085257086;1.482876059;1.491668123;1.510807589;1.337792173;1.469962482;1.26899773;4.738410346;177.716302;179.0480787;101.1837851;138.8012525;18.36736317;3.2207;5.8768;1.8507;-0.39041;-0.28923;-0.29654;-0.26915;7.811;2;2;6.353;2;7.076;4.745;-0.013;-0.03216;0.00688;0.01173;156.376;1.844067771;2.58761616;2.689386468;2.58761339;2.755448656;2.401915888;2.555192389;116.5994;33.2137;47.3923;47.3926;160.8221;72.5328;34.3838;36.3975;23.6482;1.5;1.25;1.34;92.648;21.171;37.436;27.099;16.611245;13.736565;14.552994;0.78283;0.43034;3.65774;1.43351;0.17747;0.08372;0.52514;0.38533;0.16116;0.07797;0.45922;0.31198;18.154052;18.352637;19.441712;1780.348;1744.12;217.8748;13.7795;56.985201;37.46581;41.786449;350.86;146.26;201.46;226.89;4.8547;1.49;-0.44972;1.18512;-0.1172;0.14578;-0.42352;-0.2037;-0.2037;-0.52529;-0.45406;0.04902;-0.03181;-0.51163;0.57132;15.573398;19.41175;51.150329;177.28
6;real6;60;361.5;168.12;198.45;1.8;1;1;1.7;1;1.7;1.504;3.149;1;1;3.151;1;3.714;3.274;120.9633334;120.9628307;116.2565149;116.5706939;121.2579595;122.1647199;126.570416;118.0738359;117.4021722;119.4973884;123.0581901;1.339178194;1.571485088;1.086174655;1.328222238;1.400533582;1.400537834;1.085388469;1.482876059;1.490183416;1.513097292;1.337219164;1.469962482;1.26899773;4.738410346;178.8574627;177.3989151;101.1837851;138.8012525;18.36736317;3.2207;5.8768;2.8211;-0.39041;-0.28923;-0.29654;-0.28195;7.811;2;2;6.353;2;6.381;4.744;-0.013;-0.03216;0.00688;0.01116;156.376;1.847298188;2.58761616;2.661095976;2.58761339;2.762591203;2.401915888;2.566236904;116.5994;33.2137;47.3923;47.3926;159.3905;69.442;34.3838;36.9834;23.6482;1.5;1.25;1.29;92.648;21.171;37.436;20.111;16.611245;13.736565;14.086181;0.78283;0.43034;3.65774;1.86878;0.17747;0.08372;0.52514;0.52596;0.16116;0.07797;0.45922;0.44599;18.154052;18.247823;19.441712;1780.348;1740.4;217.8748;38.8904;56.985201;37.46581;40.706679;350.86;146.26;179.11;226.89;4.8547;1.49;-0.44972;1.18512;-0.1172;0.14578;-0.42352;-0.2037;-0.2037;-0.52574;-0.44861;0.04902;-0.03644;-0.51163;0.57132;15.573398;19.41175;51.150329;177.28
7;real7;83;361.5;168.12;217.83;1.8;1;1;1.7;1;1.7;1.504;3.149;1;1;3.151;1;3.556;3.276;120.9633334;120.9628307;116.2565149;116.2179571;121.664523;122.110892;126.570416;118.0738359;116.515391;121.0778427;122.4067627;1.339178194;1.571485088;1.085717426;1.328222238;1.400533582;1.400537834;1.085046919;1.482876059;1.491238235;1.512015801;1.338154284;1.469962482;1.26899773;4.738410346;177.6136784;178.6083796;101.1837851;138.8012525;18.36736317;3.2207;5.8768;1.6035;-0.39041;-0.28923;-0.29654;-0.25462;7.811;2;2;6.353;2;7.479;4.744;-0.013;-0.03216;0.00688;0.01355;156.376;1.84309724;2.58761616;2.701427683;2.58761339;2.748727107;2.401915888;2.55405938;116.5994;33.2137;47.3923;47.3926;160.4316;74.7131;34.3838;36.9985;23.6482;1.5;1.25;1.32;92.648;21.171;37.436;36.422;16.611245;13.736565;14.567303;0.78283;0.43034;3.65774;2.08224;0.17747;0.08372;0.52514;0.29814;0.16116;0.07797;0.45922;0.26977;18.154052;18.465981;19.441712;1780.348;1738.11;217.8748;27.42;56.985201;37.46581;41.932515;350.86;146.26;199.21;226.89;4.8547;1.49;-0.44972;1.18512;-0.1172;0.14578;-0.42352;-0.2037;-0.2037;-0.52622;-0.46085;0.04902;-0.02985;-0.51163;0.57132;15.573398;19.41175;51.150329;177.28
8;real8;92;361.5;168.12;238.21;1.8;1;1;1.7;1;1.789;1.504;3.149;1;1;3.151;1;4.528;3.274;120.9633334;120.9628307;116.2565149;116.3570477;121.5179143;122.1183298;126.570416;118.0738359;116.3131317;120.9054105;122.7814453;1.339178194;1.571485088;1.086012441;1.328222238;1.400533582;1.400537834;1.085080445;1.482876059;1.489757992;1.510750845;1.337892869;1.469962482;1.26899773;4.738410346;177.6764695;178.6108645;101.1837851;138.8012525;18.36736317;3.2207;5.8768;3.4642;-0.39041;-0.28923;-0.29654;-0.26345;7.811;2;2;6.353;2;8.448;4.745;-0.013;-0.03216;0.00688;0.01332;156.376;1.844767085;2.58761616;2.694322894;2.58761339;2.755356123;2.401915888;2.548935257;116.5994;33.2137;47.3923;47.3926;161.0212;73.9935;34.3838;37.5716;23.6482;1.5;1.25;1.37;92.648;21.171;37.436;26.669;16.611245;13.736565;14.987234;0.78283;0.43034;3.65774;1.2109;0.17747;0.08372;0.52514;0.2661;0.16116;0.07797;0.45922;0.2244;18.154052;18.614431;19.441712;1780.348;1738.16;217.8748;32.2014;56.985201;37.46581;44.325974;350.86;146.26;215.05;226.89;4.8547;1.49;-0.44972;1.18512;-0.1172;0.14578;-0.42352;-0.2037;-0.2037;-0.52495;-0.45932;0.04902;-0.03033;-0.51163;0.57132;15.573398;19.41175;51.150329;177.28
9;real9;90;361.5;168.12;251.17;1.8;1;1;1.7;1;2.469;1.504;3.149;1;1;3.151;1;3.213;3.278;120.9633334;120.9628307;116.2565149;116.2957283;121.3928304;122.3015602;126.570416;118.0738359;116.5644404;120.8292793;122.6061158;1.339178194;1.571485088;1.085975014;1.328222238;1.400533582;1.400537834;1.085234074;1.482876059;1.490501803;1.51124989;1.338331509;1.469962482;1.26899773;4.738410346;177.41982;178.7585958;101.1837851;138.8012525;18.36736317;3.2207;5.8768;1.3936;-0.39041;-0.28923;-0.29654;-0.26892;7.811;2;2;6.353;2;8.474;4.745;-0.013;-0.03216;0.00688;0.01346;156.376;1.844252923;2.58761616;2.691506809;2.58761339;2.755795811;2.401915888;2.553457392;116.5994;33.2137;47.3923;47.3926;160.6755;73.8425;34.3838;36.2128;23.6482;1.5;1.25;1.39;92.648;21.171;37.436;20.117;16.611245;13.736565;14.723791;0.78283;0.43034;3.65774;1.95799;0.17747;0.08372;0.52514;0.2578;0.16116;0.07797;0.45922;0.24262;18.154052;18.450732;19.441712;1780.348;1738.47;217.8748;33.5787;56.985201;37.46581;44.528089;350.86;146.26;229.05;226.89;4.8547;1.49;-0.44972;1.18512;-0.1172;0.14578;-0.42352;-0.2037;-0.2037;-0.52529;-0.45998;0.04902;-0.03078;-0.51163;0.57132;15.573398;19.41175;51.150329;177.28
10;real10;90;361.5;168.12;265.55;1.8;1;1;1.7;1;1.615;1.504;3.149;1;1;3.151;1;6.865;3.275;120.9633334;120.9628307;116.2565149;116.2836338;121.4580551;122.2512925;126.570416;118.0738359;116.4150512;120.9565512;122.6283765;1.339178194;1.571485088;1.085940492;1.328222238;1.400533582;1.400537834;1.085320393;1.482876059;1.490104389;1.511086374;1.33821081;1.469962482;1.26899773;4.738410346;177.4632663;178.5179249;101.1837851;138.8012525;18.36736317;3.2207;5.8768;1.283;-0.39041;-0.28923;-0.29654;-0.26886;7.811;2;2;6.353;2;4.529;4.745;-0.013;-0.03216;0.00688;0.01319;156.376;1.844175961;2.58761616;2.694866897;2.58761339;2.755220091;2.401915888;2.550921752;116.5994;33.2137;47.3923;47.3926;160.4208;74.1939;34.3838;36.4355;23.6482;1.5;1.25;1.4;92.648;21.171;37.436;20.113;16.611245;13.736565;14.945386;0.78283;0.43034;3.65774;1.58171;0.17747;0.08372;0.52514;0.23148;0.16116;0.07797;0.45922;0.21473;18.154052;18.557417;19.441712;1780.348;1739.08;217.8748;34.2673;56.985201;37.46581;45.128416;350.86;146.26;246.01;226.89;4.8547;1.49;-0.44972;1.18512;-0.1172;0.14578;-0.42352;-0.2037;-0.2037;-0.52535;-0.4597;0.04902;-0.03093;-0.51163;0.57132;15.573398;19.41175;51.150329;177.28
11;real11;91;361.5;168.12;231.23;1.8;1;1;1.7;1;1.745;1.504;3.149;1;1;3.151;1;3.173;4.416;120.9633334;120.9628307;116.2565149;116.3692375;121.2137012;122.415346;126.570416;118.0738359;115.9490188;120.3572925;123.6649801;1.339178194;1.571485088;1.086069284;1.328222238;1.400533582;1.400537834;1.084878995;1.482876059;1.492297431;1.512747958;1.338072023;1.469962482;1.26899773;4.738410346;179.2445717;177.7089731;101.1837851;138.8012525;18.36736317;3.2207;5.8768;1.4284;-0.39041;-0.28923;-0.29654;-0.26936;7.811;2;2;6.353;2;7.314;4.731;-0.013;-0.03216;0.00688;0.01523;156.376;1.84476601;2.58761616;2.679766821;2.58761339;2.779470774;2.401915888;2.547737386;116.5994;33.2137;47.3923;47.3926;154.0507;72.7193;34.3838;35.0447;23.6482;1.5;1.25;1.35;92.648;21.171;37.436;19.663;16.611245;13.736565;14.426809;0.78283;0.43034;3.65774;2.15201;0.17747;0.08372;0.52514;0.33378;0.16116;0.07797;0.45922;0.30879;18.154052;18.335873;19.441712;1780.348;1733.37;217.8748;35.6273;56.985201;37.46581;42.822207;350.86;146.26;211.04;226.89;4.8547;1.49;-0.44972;1.18512;-0.1172;0.14578;-0.42352;-0.2037;-0.2037;-0.51981;-0.46323;0.04902;-0.02781;-0.51163;0.57132;15.573398;19.41175;51.150329;177.28
12;real12;90;361.5;152.46;193.61;1.7;1;1;1.7;1;1.7;1.504;3.148;1;1;3.151;1;3.157;3.275;120.9325701;120.9335908;116.2565149;116.3214871;121.3959825;122.2760622;126.570416;118.1338391;116.5427351;120.7446801;122.7125154;1.339178194;1.570354163;1.085911837;1.328222238;1.401613721;1.401615102;1.085236558;1.482876059;1.491297247;1.511103656;1.337966689;1.469962482;1.26899773;4.738410346;177.7241777;178.7828065;101.1837851;138.8012525;18.36736317;3.2207;3.2127;1.7023;-0.39041;-0.28923;-0.30052;-0.27605;6.367;2;2;6.353;2;6.371;4.745;-0.013;-0.03216;0.01512;0.01205;121.931;1.844458873;2.587145028;2.689864302;2.587159209;2.757037113;2.404520719;2.553708553;116.5994;33.2137;49.0643;49.0625;160.9221;73.1084;34.3838;35.9798;23.6482;1.5;1.21;1.28;92.648;21.171;37.431;20.112;16.611245;13.031613;13.860476;0.78283;0.43034;3.67097;2.71406;0.17747;0.08372;1.13506;0.54237;0.16116;0.07797;0.86701;0.4677;17.785818;18.075842;19.441712;1780.348;1738.7;217.8748;27.7501;56.985201;35.160335;38.563601;350.86;132.61;174.56;226.89;4.8547;1.49;-0.44972;1.17553;-0.1172;0.14578;-0.42647;-0.21678;-0.21678;-0.52502;-0.45685;0.04902;-0.03202;-0.51163;0.57132;15.573398;19.41175;51.150329;177.28
13;real13;39;361.5;168.12;213.51;1.8;1;1;1.7;1;1.536;1.504;3.149;1;1;3.151;1;6.104;3.3;120.9633334;120.9628307;116.2565149;117.1189106;121.559818;121.3194734;126.570416;118.0738359;116.795309;121.6824378;121.4936853;1.339178194;1.571485088;1.087104576;1.328222238;1.400533582;1.400537834;1.087941325;1.482876059;1.514145897;1.513701052;1.333867566;1.469962482;1.26899773;4.738410346;178.0526261;179.5574377;101.1837851;138.8012525;18.36736317;3.2207;5.8768;1.8868;-0.39041;-0.28923;-0.29654;-0.28712;7.811;2;2;6.353;2;4.67;4.749;-0.013;-0.03216;0.00688;0.03181;156.376;1.85570984;2.58761616;2.722291881;2.58761339;2.714714324;2.401915888;2.578833859;116.5994;33.2137;47.3923;47.3926;158.1042;70.7062;34.3838;33.8489;23.6482;1.5;1.25;1.32;92.648;21.171;37.436;20.147;16.611245;13.736565;14.042867;0.78283;0.43034;3.65774;1.24157;0.17747;0.08372;0.52514;0.69394;0.16116;0.07797;0.45922;0.55484;18.154052;18.211486;19.441712;1780.348;1757.37;217.8748;29.4892;56.985201;37.46581;40.816484;350.86;146.26;193.51;226.89;4.8547;1.49;-0.44972;1.18512;-0.1172;0.14578;-0.42352;-0.2037;-0.2037;-0.52939;-0.47312;0.04902;-0.01154;-0.51163;0.57132;15.573398;19.41175;51.150329;177.28
14;real14;35;361.5;168.12;207.6;1.8;1;1;1.7;1;1.953;1.504;3.149;1;1;3.151;1;3.472;3.28;120.9633334;120.9628307;116.2565149;115.9138892;121.9479848;122.138126;126.570416;118.0738359;114.8931383;122.8583925;122.2467931;1.339178194;1.571485088;1.085083694;1.328222238;1.400533582;1.400537834;1.086006762;1.482876059;1.51899949;1.512331501;1.33595316;1.469962482;1.26899773;4.738410346;179.7745846;179.7329857;101.1837851;138.8012525;18.36736317;3.2207;5.8768;1.2764;-0.39041;-0.28923;-0.29654;-0.2965;7.811;2;2;6.353;2;6.273;4.746;-0.013;-0.03216;0.00688;0.06945;156.376;1.840324118;2.58761616;2.757266397;2.58761339;2.744246979;2.401915888;2.555081169;116.5994;33.2137;47.3923;47.3926;159.3046;79.3767;34.3838;28.364;23.6482;1.5;1.25;1.31;92.648;21.171;37.436;20.128;16.611245;13.736565;13.993371;0.78283;0.43034;3.65774;2.45068;0.17747;0.08372;0.52514;0.49436;0.16116;0.07797;0.45922;0.43563;18.154052;18.135875;19.441712;1780.348;1743.24;217.8748;46.2942;56.985201;37.46581;40.129009;350.86;146.26;187.12;226.89;4.8547;1.49;-0.44972;1.18512;-0.1172;0.14578;-0.42352;-0.2037;-0.2037;-0.52533;-0.4936;0.04902;-0.00052;-0.51163;0.57132;15.573398;19.41175;51.150329;177.28
15;real15;3;361.5;168.12;134.8;1.8;1;1;1.7;1;1.502;1.504;3.149;1;1;3.151;1;2.026;3.286;120.9633334;120.9628307;116.2565149;116.5390383;120.8146929;122.6462243;126.570416;118.0738359;114.6331202;121.8172838;123.549431;1.339178194;1.571485088;1.086972454;1.328222238;1.400533582;1.400537834;1.08623996;1.482876059;1.50458169;1.508273655;1.334627122;1.469962482;1.26899773;4.738410346;179.9909357;179.7738589;101.1837851;138.8012525;18.36736317;3.2207;5.8768;1.3506;-0.39041;-0.28923;-0.29654;-0.29795;7.811;2;2;6.353;2;2.97;4.747;-0.013;-0.03216;0.00688;0.07132;156.376;1.848385531;2.58761616;2.70675119;2.58761339;2.775355924;2.401915888;2.535821377;116.5994;33.2137;47.3923;47.3926;158.3401;76.96;34.3838;37.8636;23.6482;1.5;1.25;1.22;92.648;21.171;37.436;20.136;16.611245;13.736565;12.129322;0.78283;0.43034;3.65774;7.92037;0.17747;0.08372;0.52514;1.82088;0.16116;0.07797;0.45922;1.52236;18.154052;17.261921;19.441712;1780.348;1758.63;217.8748;42.7727;56.985201;37.46581;32.929417;350.86;146.26;109.57;226.89;4.8547;1.49;-0.44972;1.18512;-0.1172;0.14578;-0.42352;-0.2037;-0.2037;-0.5282;-0.49508;0.04902;-0.01039;-0.51163;0.57132;15.573398;19.41175;51.150329;177.28
16;real16;85;361.5;181.99;213.6;1.779;1;1;1.7;1;1.815;1.504;3.165;1;1;3.151;1;3.161;3.275;121.2734997;121.3742906;116.2565149;116.3355355;121.3284084;122.3274556;126.570416;117.3522093;116.479875;120.7950193;122.725076;1.339178194;1.564676735;1.085999509;1.328222238;1.398232089;1.405267335;1.085254626;1.482876059;1.490685062;1.511038919;1.338361148;1.469962482;1.26899773;4.738410346;177.6192221;178.6603452;101.1837851;138.8012525;18.36736317;3.2207;3.1491;1.3961;-0.39041;-0.28923;-0.27267;-0.26885;8.436;2;2;6.353;2;7.313;4.746;-0.013;-0.03216;0.02401;0.01422;151.957;1.844689119;2.583548935;2.689850492;2.590846516;2.7585233;2.394869998;2.552267706;116.5994;33.2137;46.8605;48.1274;160.9369;74.0864;34.3838;36.1672;23.6482;1.5;1.28;1.32;92.648;21.171;44.517;20.113;16.611245;13.765647;14.180112;0.78283;0.43034;3.2857;2.53338;0.17747;0.08372;0.54243;0.4018;0.16116;0.07797;0.46696;0.3569;18.115581;18.211486;19.441712;1780.348;1738.06;217.8748;33.3603;56.985201;38.409068;40.977186;350.86;159.56;192.82;226.89;4.8547;1.49;-0.44972;1.17992;-0.1172;0.14578;-0.46281;-0.19661;-0.20491;-0.52487;-0.46078;0.04902;-0.03053;-0.51163;0.57132;15.573398;19.41175;51.150329;177.28
17;real17;88;361.5;152.46;213.6;1.7;1;1;1.7;1;1.815;1.504;3.148;1;1;3.151;1;3.161;3.275;120.9325701;120.9335908;116.2565149;116.3355355;121.3284084;122.3274556;126.570416;118.1338391;116.479875;120.7950193;122.725076;1.339178194;1.570354163;1.085999509;1.328222238;1.401613721;1.401615102;1.085254626;1.482876059;1.490685062;1.511038919;1.338361148;1.469962482;1.26899773;4.738410346;177.6192221;178.6603452;101.1837851;138.8012525;18.36736317;3.2207;3.2127;1.3961;-0.39041;-0.28923;-0.30052;-0.26885;6.367;2;2;6.353;2;7.313;4.746;-0.013;-0.03216;0.01512;0.01422;121.931;1.844689119;2.587145028;2.689850492;2.587159209;2.7585233;2.404520719;2.552267706;116.5994;33.2137;49.0643;49.0625;160.9369;74.0864;34.3838;36.1672;23.6482;1.5;1.21;1.32;92.648;21.171;37.431;20.113;16.611245;13.031613;14.180112;0.78283;0.43034;3.67097;2.53338;0.17747;0.08372;1.13506;0.4018;0.16116;0.07797;0.86701;0.3569;17.785818;18.211486;19.441712;1780.348;1738.06;217.8748;33.3603;56.985201;35.160335;40.977186;350.86;132.61;192.82;226.89;4.8547;1.49;-0.44972;1.17553;-0.1172;0.14578;-0.42647;-0.21678;-0.21678;-0.52487;-0.46078;0.04902;-0.03053;-0.51163;0.57132;15.573398;19.41175;51.150329;177.28
18;real18;89;361.5;172.55;213.6;1.95;1;1;1.7;1;1.815;1.504;3.15;1;1;3.151;1;3.161;3.275;120.9673352;120.9671251;116.2565149;116.3355355;121.3284084;122.3274556;126.570416;118.0655396;116.479875;120.7950193;122.725076;1.339178194;1.571555047;1.085999509;1.328222238;1.400480779;1.400483914;1.085254626;1.482876059;1.490685062;1.511038919;1.338361148;1.469962482;1.26899773;4.738410346;177.6192221;178.6603452;101.1837851;138.8012525;18.36736317;3.2207;5.7765;1.3961;-0.39041;-0.28923;-0.29088;-0.26885;8.108;2;2;6.353;2;7.313;4.746;-0.013;-0.03216;0.00584;0.01422;200.827;1.844689119;2.58768399;2.689850492;2.587683991;2.7585233;2.401720037;2.552267706;116.5994;33.2137;47.0374;47.0375;160.9369;74.0864;34.3838;36.1672;23.6482;1.5;1.26;1.32;92.648;21.171;37.437;20.113;16.611245;14.112656;14.180112;0.78283;0.43034;3.65877;2.53338;0.17747;0.08372;0.35298;0.4018;0.16116;0.07797;0.32192;0.3569;18.526333;18.211486;19.441712;1780.348;1738.06;217.8748;33.3603;56.985201;38.47423;40.977186;350.86;150.64;192.82;226.89;4.8547;1.49;-0.44972;1.1759;-0.1172;0.14578;-0.42165;-0.20286;-0.20286;-0.52487;-0.46078;0.04902;-0.03053;-0.51163;0.57132;15.573398;19.41175;51.150329;177.28
19;real19;91;361.5;158.17;213.6;1.7;1;1;1.7;1;1.815;1.504;3.148;1;1;3.151;1;3.161;3.275;120.9539164;120.9536692;116.2565149;116.3355355;121.3284084;122.3274556;126.570416;118.0924144;116.479875;120.7950193;122.725076;1.339178194;1.568738173;1.085999509;1.328222238;1.401840288;1.401841292;1.085254626;1.482876059;1.490685062;1.511038919;1.338361148;1.469962482;1.26899773;4.738410346;177.6192221;178.6603452;101.1837851;138.8012525;18.36736317;3.2207;5.0218;1.3961;-0.39041;-0.28923;-0.29554;-0.26885;6.944;2;2;6.353;2;7.313;4.746;-0.013;-0.03216;0.01834;0.01422;139.921;1.844689119;2.586179438;2.689850492;2.58617715;2.7585233;2.404387932;2.552267706;116.5994;33.2137;46.4535;46.454;160.9369;74.0864;34.3838;36.1672;23.6482;1.5;1.23;1.32;92.648;21.171;37.458;20.113;16.611245;13.432901;14.180112;0.78283;0.43034;3.65602;2.53338;0.17747;0.08372;0.72878;0.4018;0.16116;0.07797;0.60766;0.3569;17.992064;18.211486;19.441712;1780.348;1738.06;217.8748;33.3603;56.985201;36.382465;40.977186;350.86;137.19;192.82;226.89;4.8547;1.49;-0.44972;1.18367;-0.1172;0.14578;-0.4442;-0.20245;-0.20245;-0.52487;-0.46078;0.04902;-0.03053;-0.51163;0.57132;15.573398;19.41175;51.150329;177.28
20;real20;91;361.5;168.12;213.6;1.8;1;1;1.7;1;1.815;1.504;3.149;1;1;3.151;1;3.161;3.275;120.9633334;120.9628307;116.2565149;116.3355355;121.3284084;122.3274556;126.570416;118.0738359;116.479875;120.7950193;122.725076;1.339178194;1.571485088;1.085999509;1.328222238;1.400533582;1.400537834;1.085254626;1.482876059;1.490685062;1.511038919;1.338361148;1.469962482;1.26899773;4.738410346;177.6192221;178.6603452;101.1837851;138.8012525;18.36736317;3.2207;5.8768;1.3961;-0.39041;-0.28923;-0.29654;-0.26885;7.811;2;2;6.353;2;7.313;4.746;-0.013;-0.03216;0.00688;0.01422;156.376;1.844689119;2.58761616;2.689850492;2.58761339;2.7585233;2.401915888;2.552267706;116.5994;33.2137;47.3923;47.3926;160.9369;74.0864;34.3838;36.1672;23.6482;1.5;1.25;1.32;92.648;21.171;37.436;20.113;16.611245;13.736565;14.180112;0.78283;0.43034;3.65774;2.53338;0.17747;0.08372;0.52514;0.4018;0.16116;0.07797;0.45922;0.3569;18.154052;18.211486;19.441712;1780.348;1738.06;217.8748;33.3603;56.985201;37.46581;40.977186;350.86;146.26;192.82;226.89;4.8547;1.49;-0.44972;1.18512;-0.1172;0.14578;-0.42352;-0.2037;-0.2037;-0.52487;-0.46078;0.04902;-0.03053;-0.51163;0.57132;15.573398;19.41175;51.150329;177.28
21;real21;91;361.5;205.14;213.6;1.817;1;1;1.7;1;1.815;1.504;3.224;1;1;3.151;1;3.161;3.275;120.8297455;120.8053114;116.2565149;116.3355355;121.3284084;122.3274556;126.570416;118.3649385;116.479875;120.7950193;122.725076;1.339178194;1.574946511;1.085999509;1.328222238;1.401277361;1.401443244;1.085254626;1.482876059;1.490685062;1.511038919;1.338361148;1.469962482;1.26899773;4.738410346;177.6192221;178.6603452;101.1837851;138.8012525;18.36736317;3.2207;5.3136;1.3961;-0.39041;-0.28923;-0.30931;-0.26885;9.262;2;2;6.353;2;7.313;4.746;-0.013;-0.03216;-0.02186;0.01422;179.967;1.844689119;2.589612969;2.689850492;2.589442276;2.7585233;2.40698539;2.552267706;116.5994;33.2137;48.5092;48.4898;160.9369;74.0864;34.3838;36.1672;23.6482;1.5;1.33;1.32;92.648;21.171;57.278;20.113;16.611245;14.332167;14.180112;0.78283;0.43034;2.59068;2.53338;0.17747;0.08372;0.34188;0.4018;0.16116;0.07797;0.30261;0.3569;18.369054;18.211486;19.441712;1780.348;1738.06;217.8748;33.3603;56.985201;42.702827;40.977186;350.86;180.61;192.82;226.89;4.8547;1.49;-0.44972;1.18568;-0.1172;0.14578;-0.39326;-0.21965;-0.21989;-0.52487;-0.46078;0.04902;-0.03053;-0.51163;0.57132;15.573398;19.41175;51.150329;177.28
22;real22;92;361.5;187.81;213.6;1.901;1;1;1.7;1;1.815;1.504;3.15;1;1;3.151;1;3.161;3.275;120.8790821;120.7775568;116.2565149;116.3355355;121.3284084;122.3274556;126.570416;118.3433168;116.479875;120.7950193;122.725076;1.339178194;1.574764972;1.085999509;1.328222238;1.40095251;1.400783414;1.085254626;1.482876059;1.490685062;1.511038919;1.338361148;1.469962482;1.26899773;4.738410346;177.6192221;178.6603452;101.1837851;138.8012525;18.36736317;3.2207;6.7037;1.3961;-0.39041;-0.28923;-0.31147;-0.26885;7.643;2;2;6.353;2;7.313;4.746;-0.013;-0.03216;-0.00253;0.01422;189.928;1.844689119;2.58980498;2.689850492;2.588364308;2.7585233;2.405868873;2.552267706;116.5994;33.2137;48.2089;48.1814;160.9369;74.0864;34.3838;36.1672;23.6482;1.5;1.29;1.32;92.648;21.171;37.45;20.113;16.611245;14.344492;14.180112;0.78283;0.43034;2.23223;2.53338;0.17747;0.08372;0.3586;0.4018;0.16116;0.07797;0.32668;0.3569;18.449986;18.211486;19.441712;1780.348;1738.06;217.8748;33.3603;56.985201;40.917345;40.977186;350.86;164.45;192.82;226.89;4.8547;1.49;-0.44972;1.18629;-0.1172;0.14578;-0.40177;-0.21173;-0.21171;-0.52487;-0.46078;0.04902;-0.03053;-0.51163;0.57132;15.573398;19.41175;51.150329;177.28
23;real23;93;361.5;168.09;213.6;1.731;1;1;1.7;1;1.815;1.504;4.498;1;1;3.151;1;3.161;3.275;120.2503025;121.1130659;116.2565149;116.3355355;121.3284084;122.3274556;126.570416;118.6366316;116.479875;120.7950193;122.725076;1.339178194;1.573533635;1.085999509;1.328222238;1.400163172;1.400211526;1.085254626;1.482876059;1.490685062;1.511038919;1.338361148;1.469962482;1.26899773;4.738410346;177.6192221;178.6603452;101.1837851;138.8012525;18.36736317;3.2207;5.2059;1.3961;-0.39041;-0.28923;-0.2962;-0.26885;6.37;2;2;6.353;2;7.313;4.746;-0.013;-0.03216;0.00648;0.01422;156.376;1.844689119;2.579984231;2.689850492;2.591060756;2.7585233;2.408365459;2.552267706;116.5994;33.2137;50.2131;50.4493;160.9369;74.0864;34.3838;36.1672;23.6482;1.5;1.25;1.32;92.648;21.171;37.393;20.113;16.611245;13.832716;14.180112;0.78283;0.43034;2.14681;2.53338;0.17747;0.08372;0.66652;0.4018;0.16116;0.07797;0.50861;0.3569;18.154052;18.211486;19.441712;1780.348;1738.06;217.8748;33.3603;56.985201;37.951331;40.977186;350.86;146.27;192.82;226.89;4.8547;1.49;-0.44972;1.18708;-0.1172;0.14578;-0.40504;-0.23457;-0.22075;-0.52487;-0.46078;0.04902;-0.03053;-0.51163;0.57132;15.573398;19.41175;51.150329;177.28
24;real24;88;361.5;157;213.6;1.7;1;1;1.7;1;1.815;1.504;3.714;1;1;3.151;1;3.161;3.275;124.1034051;120.0101035;116.2565149;116.3355355;121.3284084;122.3274556;126.570416;115.88646;116.479875;120.7950193;122.725076;1.339178194;1.574256841;1.085999509;1.328222238;1.393425679;1.404253974;1.085254626;1.482876059;1.490685062;1.511038919;1.338361148;1.469962482;1.26899773;4.738410346;177.6192221;178.6603452;101.1837851;138.8012525;18.36736317;3.2207;2.933;1.3961;-0.39041;-0.28923;-0.29516;-0.26885;6.382;2;2;6.353;2;7.313;4.746;-0.013;-0.03216;0.01012;0.01422;139.921;1.844689119;2.622933877;2.689850492;2.580996981;2.7585233;2.371103764;2.552267706;116.5994;33.2137;18.6466;46.2508;160.9369;74.0864;34.3838;36.1672;23.6482;1.5;1.22;1.32;92.648;21.171;36.841;20.113;16.611245;13.362127;14.180112;0.78283;0.43034;2.22646;2.53338;0.17747;0.08372;1.12197;0.4018;0.16116;0.07797;0.7467;0.3569;17.992064;18.211486;19.441712;1780.348;1738.06;217.8748;33.3603;56.985201;36.42486;40.977186;350.86;137.12;192.82;226.89;4.8547;1.49;-0.44972;1.18067;-0.1172;0.14578;-0.48814;0.45307;-0.20339;-0.52487;-0.46078;0.04902;-0.03053;-0.51163;0.57132;15.573398;19.41175;51.150329;177.28
25;real25;86;361.5;184.67;213.6;1.789;1;1;1.7;1;1.815;1.504;4.36;1;1;3.151;1;3.161;3.275;124.515105;117.1744062;116.2565149;116.3355355;121.3284084;122.3274556;126.570416;118.3083139;116.479875;120.7950193;122.725076;1.339178194;1.576971029;1.085999509;1.328222238;1.412382228;1.401911833;1.085254626;1.482876059;1.490685062;1.511038919;1.338361148;1.469962482;1.26899773;4.738410346;177.6192221;178.6603452;101.1837851;138.8012525;18.36736317;3.2207;6.1651;1.3961;-0.39041;-0.28923;-0.29182;-0.26885;7.815;2;2;6.353;2;7.313;4.746;-0.013;-0.03216;0.00686;0.01422;170.403;1.844689119;2.646833225;2.689850492;2.543917899;2.7585233;2.416217934;2.552267706;116.5994;33.2137;33.709;45.5583;160.9369;74.0864;34.3838;36.1672;23.6482;1.5;1.27;1.32;92.648;21.171;35.839;20.113;16.611245;14.065289;14.180112;0.78283;0.43034;2.15236;2.53338;0.17747;0.08372;0.51136;0.4018;0.16116;0.07797;0.41528;0.3569;18.283092;18.211486;19.441712;1780.348;1738.06;217.8748;33.3603;56.985201;38.426894;40.977186;350.86;163.93;192.82;226.89;4.8547;1.49;-0.44972;1.18456;-0.1172;0.14578;-0.42193;0.01649;-0.19843;-0.52487;-0.46078;0.04902;-0.03053;-0.51163;0.57132;15.573398;19.41175;51.150329;177.28
26;real26;90;361.5;187.63;213.6;1.755;1;1;1.7;1;1.815;1.504;3.677;1;1;3.151;1;3.161;3.275;120.8422394;121.3467281;116.2565149;116.3355355;121.3284084;122.3274556;126.570416;117.8085225;116.479875;120.7950193;122.725076;1.339178194;1.567351165;1.085999509;1.328222238;1.40555618;1.396786544;1.085254626;1.482876059;1.490685062;1.511038919;1.338361148;1.469962482;1.26899773;4.738410346;177.6192221;178.6603452;101.1837851;138.8012525;18.36736317;3.2207;4.8184;1.3961;-0.39041;-0.28923;-0.27426;-0.26885;8.452;2;2;6.353;2;7.313;4.746;-0.013;-0.03216;0.01902;0.01422;169.947;1.844689119;2.5867022;2.689850492;2.585608715;2.7585233;2.399665757;2.552267706;116.5994;33.2137;64.2991;52.7511;160.9369;74.0864;34.3838;36.1672;23.6482;1.5;1.29;1.32;92.648;21.171;44.366;20.113;16.611245;14.10649;14.180112;0.78283;0.43034;1.98988;2.53338;0.17747;0.08372;0.51536;0.4018;0.16116;0.07797;0.41045;0.3569;18.283307;18.211486;19.441712;1780.348;1738.06;217.8748;33.3603;56.985201;39.069162;40.977186;350.86;164.17;192.82;226.89;4.8547;1.49;-0.44972;1.18228;-0.1172;0.14578;-0.44178;-0.28002;-0.21339;-0.52487;-0.46078;0.04902;-0.03053;-0.51163;0.57132;15.573398;19.41175;51.150329;177.28
27;real27;92;361.5;173.35;213.6;1.798;1;1;1.7;1;1.815;1.504;3.688;1;1;3.151;1;3.161;3.275;120.406223;121.0675318;116.2565149;116.3355355;121.3284084;122.3274556;126.570416;118.5262452;116.479875;120.7950193;122.725076;1.339178194;1.573784984;1.085999509;1.328222238;1.399054321;1.400387629;1.085254626;1.482876059;1.490685062;1.511038919;1.338361148;1.469962482;1.26899773;4.738410346;177.6192221;178.6603452;101.1837851;138.8012525;18.36736317;3.2207;6.8463;1.3961;-0.39041;-0.28923;-0.29787;-0.26885;7.809;2;2;6.353;2;7.313;4.746;-0.013;-0.03216;0.00148;0.01422;174.366;1.844689119;2.58126825;2.689850492;2.59085516;2.7585233;2.406186216;2.552267706;116.5994;33.2137;62.8789;53.2192;160.9369;74.0864;34.3838;36.1672;23.6482;1.5;1.27;1.32;92.648;21.171;37.396;20.113;16.611245;14.054848;14.180112;0.78283;0.43034;2.28433;2.53338;0.17747;0.08372;0.49894;0.4018;0.16116;0.07797;0.4095;0.3569;18.317755;18.211486;19.441712;1780.348;1738.06;217.8748;33.3603;56.985201;38.941461;40.977186;350.86;150.71;192.82;226.89;4.8547;1.49;-0.44972;1.18728;-0.1172;0.14578;-0.40155;-0.27479;-0.22196;-0.52487;-0.46078;0.04902;-0.03053;-0.51163;0.57132;15.573398;19.41175;51.150329;177.28
28;real28;96;361.5;183.54;213.6;1.8;1;1;1.7;1;1.815;1.504;4.501;1;1;3.151;1;3.161;3.275;120.3995083;120.3986522;116.2565149;116.3355355;121.3284084;122.3274556;126.570416;119.2018395;116.479875;120.7950193;122.725076;1.339178194;1.576679135;1.085999509;1.328222238;1.398676195;1.398680338;1.085254626;1.482876059;1.490685062;1.511038919;1.338361148;1.469962482;1.26899773;4.738410346;177.6192221;178.6603452;101.1837851;138.8012525;18.36736317;3.2207;6.0587;1.3961;-0.39041;-0.28923;-0.29982;-0.26885;6.372;2;2;6.353;2;7.313;4.746;-0.013;-0.03216;-0.00244;0.01422;190.821;1.844689119;2.583419285;2.689850492;2.583411806;2.7585233;2.412780971;2.552267706;116.5994;33.2137;51.0957;51.0949;160.9369;74.0864;34.3838;36.1672;23.6482;1.5;1.29;1.32;92.648;21.171;37.317;20.113;16.611245;14.540434;14.180112;0.78283;0.43034;0.79235;2.53338;0.17747;0.08372;0.63352;0.4018;0.16116;0.07797;0.35205;0.3569;18.44947;18.211486;19.441712;1780.348;1738.06;217.8748;33.3603;56.985201;40.564004;40.977186;350.86;159.83;192.82;226.89;4.8547;1.49;-0.44972;1.19082;-0.1172;0.14578;-0.38226;-0.23286;-0.23285;-0.52487;-0.46078;0.04902;-0.03053;-0.51163;0.57132;15.573398;19.41175;51.150329;177.28
29;real29;85;361.5;176.83;213.6;1.7;1;1;1.7;1;1.815;1.504;3.536;1;1;3.151;1;3.161;3.275;120.0638559;120.4011108;116.2565149;116.3355355;121.3284084;122.3274556;126.570416;119.5349957;116.479875;120.7950193;122.725076;1.339178194;1.567963406;1.085999509;1.328222238;1.413652677;1.398535129;1.085254626;1.482876059;1.490685062;1.511038919;1.338361148;1.469962482;1.26899773;4.738410346;177.6192221;178.6603452;101.1837851;138.8012525;18.36736317;3.2207;2.9892;1.3961;-0.39041;-0.28923;-0.2616;-0.26885;7.475;2;2;6.353;2;7.313;4.746;-0.013;-0.03216;0.01967;0.01422;165.94;1.844689119;2.58413548;2.689850492;2.575615906;2.7585233;2.429712139;2.552267706;116.5994;33.2137;71.9654;55.1011;160.9369;74.0864;34.3838;36.1672;23.6482;1.5;1.25;1.32;92.648;21.171;53.657;20.113;16.611245;13.919022;14.180112;0.78283;0.43034;2.49734;2.53338;0.17747;0.08372;0.54543;0.4018;0.16116;0.07797;0.44958;0.3569;18.247501;18.211486;19.441712;1780.348;1738.06;217.8748;33.3603;56.985201;38.081662;40.977186;350.86;157.35;192.82;226.89;4.8547;1.49;-0.44972;1.18301;-0.1172;0.14578;-0.4365;-0.26705;-0.22495;-0.52487;-0.46078;0.04902;-0.03053;-0.51163;0.57132;15.573398;19.41175;51.150329;177.28
30;real30;86;361.5;227.87;213.6;1.7;1;1;1.7;1;1.815;1.504;4.569;1;1;3.151;1;3.161;3.275;120.0192753;120.4297558;116.2565149;116.3355355;121.3284084;122.3274556;126.570416;119.5505073;116.479875;120.7950193;122.725076;1.339178194;1.571693311;1.085999509;1.328222238;1.400043041;1.410404562;1.085254626;1.482876059;1.490685062;1.511038919;1.338361148;1.469962482;1.26899773;4.738410346;177.6192221;178.6603452;101.1837851;138.8012525;18.36736317;3.2207;3.0381;1.3961;-0.39041;-0.28923;-0.27103;-0.26885;10.024;2;2;6.353;2;7.313;4.746;-0.013;-0.03216;-0.01331;0.01422;212.012;1.844689119;2.575278765;2.689850492;2.58938608;2.7585233;2.428393831;2.552267706;116.5994;33.2137;67.8904;55.3272;160.9369;74.0864;34.3838;36.1672;23.6482;1.5;1.32;1.32;92.648;21.171;45.252;20.113;16.611245;14.765615;14.180112;0.78283;0.43034;1.82486;2.53338;0.17747;0.08372;0.26591;0.4018;0.16116;0.07797;0.23213;0.3569;18.61446;18.211486;19.441712;1780.348;1738.06;217.8748;33.3603;56.985201;40.784036;40.977186;350.86;213.5;192.82;226.89;4.8547;1.49;-0.44972;1.18479;-0.1172;0.14578;-0.41083;-0.25859;-0.23749;-0.52487;-0.46078;0.04902;-0.03053;-0.51163;0.57132;15.573398;19.41175;51.150329;177.28
31;real31;77;361.5;168.12;213.59;1.8;1;1;1.7;1;1.707;1.504;3.149;1;1;3.151;1;3.163;3.556;120.9633334;120.9628307;116.2565149;116.5516047;121.3760287;122.0647623;126.570416;118.0738359;116.4887552;120.5107485;123.0004963;1.339178194;1.571485088;1.086102112;1.328222238;1.400533582;1.400537834;1.084946799;1.482876059;1.492010386;1.512799599;1.337737905;1.469962482;1.26899773;4.738410346;177.6275927;178.6645304;101.1837851;138.8012525;18.36736317;3.2207;5.8768;2.3893;-0.39041;-0.28923;-0.29654;-0.27505;7.811;2;2;6.353;2;6.371;5.991;-0.013;-0.03216;0.00688;0.0142;156.376;1.846670665;2.58761616;2.685089;2.58761339;2.759960479;2.401915888;2.555015112;116.5994;33.2137;47.3923;47.3926;163.9186;73.38;34.3838;32.0736;23.6482;1.5;1.25;1.32;92.648;21.171;37.436;19.82;16.611245;13.736565;14.233548;0.78283;0.43034;3.65774;2.11029;0.17747;0.08372;0.52514;0.42312;0.16116;0.07797;0.45922;0.36562;18.154052;18.211486;19.441712;1780.348;1737.17;217.8748;25.9051;56.985201;37.46581;40.612218;350.86;146.26;192.96;226.89;4.8547;1.49;-0.44972;1.18512;-0.1172;0.14578;-0.42352;-0.2037;-0.2037;-0.50491;-0.46095;0.04902;-0.02729;-0.51163;0.57132;15.573398;19.41175;51.150329;177.28
32;real32;62;361.5;168.12;232.67;1.8;1;1;1.7;1;1.707;1.504;3.149;1;1;3.151;1;3.163;3.603;120.9633334;120.9628307;116.2565149;116.4976509;121.5118629;121.9808848;126.570416;118.0738359;116.5681938;120.7119784;122.716792;1.339178194;1.571485088;1.085927783;1.328222238;1.400533582;1.400537834;1.084896619;1.482876059;1.491722176;1.514373619;1.33785305;1.469962482;1.26899773;4.738410346;176.9841438;178.8068787;101.1837851;138.8012525;18.36736317;3.2207;5.8768;2.0713;-0.39041;-0.28923;-0.29654;-0.27456;7.811;2;2;6.353;2;6.371;7.163;-0.013;-0.03216;0.00688;0.01248;156.376;1.845942023;2.58761616;2.691417965;2.58761339;2.754007862;2.401915888;2.557208885;116.5994;33.2137;47.3923;47.3926;162.6248;73.2187;34.3838;32.7552;23.6482;1.5;1.25;1.36;92.648;21.171;37.436;20.164;16.611245;13.736565;14.629951;0.78283;0.43034;3.65774;1.74423;0.17747;0.08372;0.52514;0.31148;0.16116;0.07797;0.45922;0.27195;18.154052;18.335873;19.441712;1780.348;1738.12;217.8748;25.4292;56.985201;37.46581;42.532291;350.86;146.26;211.15;226.89;4.8547;1.49;-0.44972;1.18512;-0.1172;0.14578;-0.42352;-0.2037;-0.2037;-0.5042;-0.45769;0.04902;-0.02766;-0.51163;0.57132;15.573398;19.41175;51.150329;177.28
33;real33;56;361.5;168.12;252.83;1.8;1;1;1.7;1;1.707;1.504;3.149;1;1;3.151;1;3.163;3.602;120.9633334;120.9628307;116.2565149;116.5565605;121.5017612;121.9329907;126.570416;118.0738359;116.522785;120.691753;122.7825391;1.339178194;1.571485088;1.085965489;1.328222238;1.400533582;1.400537834;1.084985352;1.482876059;1.491778971;1.514181706;1.337877598;1.469962482;1.26899773;4.738410346;177.001207;178.7543948;101.1837851;138.8012525;18.36736317;3.2207;5.8768;2.3036;-0.39041;-0.28923;-0.29654;-0.27437;7.811;2;2;6.353;2;6.371;8.382;-0.013;-0.03216;0.00688;0.01309;156.376;1.846636587;2.58761616;2.690903203;2.58761339;2.754459399;2.401915888;2.556466977;116.5994;33.2137;47.3923;47.3926;162.7442;73.2704;34.3838;32.3012;23.6482;1.5;1.25;1.39;92.648;21.171;37.436;20.188;16.611245;13.736565;14.994268;0.78283;0.43034;3.65774;1.36331;0.17747;0.08372;0.52514;0.24478;0.16116;0.07797;0.45922;0.21365;18.154052;18.450732;19.441712;1780.348;1738.51;217.8748;26.0367;56.985201;37.46581;45.615789;350.86;146.26;229.49;226.89;4.8547;1.49;-0.44972;1.18512;-0.1172;0.14578;-0.42352;-0.2037;-0.2037;-0.50338;-0.45868;0.04902;-0.02698;-0.51163;0.57132;15.573398;19.41175;51.150329;177.28
34;real34;39;279.03;168.09;213.48;1.8;1;1;2.76;1;1.817;1.504;3.149;1;1;3.185;1;3.157;3.274;120.940405;120.9396031;116.3280884;116.3292534;121.4086465;122.2539523;125.9711076;118.1199919;116.4892413;120.8506638;122.6600143;1.337912421;1.570438089;1.085892283;1.329122447;1.4003269;1.40035663;1.085163955;1.485320147;1.491007931;1.511116717;1.338497201;1.472841535;1.26972541;1.394988574;177.5332905;178.7169472;124.0246161;118.1344645;8.186663522;3.8524;5.6129;1.1838;-0.39771;-0.29857;-0.2964;-0.26837;7.81;2;2;4.074;2;7.314;4.742;-0.01739;-0.02848;0.0069;0.01385;156.376;1.844458206;2.58622053;2.692640165;2.586235702;2.756114523;2.402163462;2.552736982;117.2199;32.5949;47.1748;47.17;160.8756;74.2596;36.0002;36.4583;26.7739;1.43;1.25;1.32;92.338;21.664;37.409;20.079;15.589416;13.736133;14.180087;0.81486;1.15545;3.65593;2.53161;0.17832;0.14032;0.52554;0.40235;0.16325;0.13374;0.45949;0.35667;18.154052;18.211486;18.988454;1778.02;1737.74;189.7109;32.6929;50.382054;37.422463;41.210115;256.41;146.25;192.78;225.58;4.8911;1.48;-0.45264;1.17574;-0.12032;0.15049;-0.42291;-0.203;-0.20299;-0.52486;-0.46035;0.04655;-0.03071;-0.52576;0.567;15.544507;19.41175;51.210856;176.62
35;real35;60;289.04;168.09;213.48;1.8;1;1;1.7;1;1.817;1.504;3.149;1;1;3.148;1;3.157;3.274;120.940405;120.9396031;116.1851955;116.3292534;121.4086465;122.2539523;125.730658;118.1199919;116.4892413;120.8506638;122.6600143;1.339516194;1.570438089;1.085892283;1.32723738;1.4003269;1.40035663;1.085163955;1.484715988;1.491007931;1.511116717;1.338497201;1.474321489;1.270638461;0.745470906;177.5332905;178.7169472;111.9181714;128.4284173;8.439011626;3.8524;5.6129;1.1838;-0.39771;-0.29409;-0.2964;-0.26837;7.81;2;2;6.354;2;7.314;4.742;-0.01739;-0.02954;0.0069;0.01385;156.376;1.844458206;2.58622053;2.692640165;2.586235702;2.756114523;2.402163462;2.552736982;122.3337;33.153;47.1748;47.17;160.8756;74.2596;34.4631;36.4583;23.9221;1.44;1.25;1.32;92.338;21.937;37.409;20.079;15.950557;13.736133;14.180087;0.81486;0.94263;3.65593;2.53161;0.17832;0.10833;0.52554;0.40235;0.16325;0.10313;0.45949;0.35667;18.154052;18.211486;19.094678;1778.25;1737.74;209.396;32.6929;51.111905;37.422463;41.210115;268.6;146.25;192.78;225.58;4.9955;1.48;-0.45136;1.17574;-0.13419;0.14666;-0.42291;-0.203;-0.20299;-0.52486;-0.46035;0.04956;-0.03071;-0.52198;0.56972;15.544507;19.41175;51.210856;176.62
36;real36;2;307.39;168.09;213.48;1.8;1;1;1.504;1;1.817;1.504;3.149;1;1;6.137;1;3.157;3.274;120.940405;120.9396031;116.2999069;116.3292534;121.4086465;122.2539523;125.9642928;118.1199919;116.4892413;120.8506638;122.6600143;1.338713332;1.570438089;1.085892283;1.328066264;1.4003269;1.40035663;1.085163955;1.484993948;1.491007931;1.511116717;1.338497201;1.471297763;1.270016663;1.696926515;177.5332905;178.7169472;111.9606117;128.8379975;9.21757545;3.8524;5.6129;1.1838;-0.39771;-0.29066;-0.2964;-0.26837;7.81;2;2;4.602;2;7.314;4.742;-0.01739;-0.02906;0.0069;0.01385;156.376;1.844458206;2.58622053;2.692640165;2.586235702;2.756114523;2.402163462;2.552736982;123.4993;32.5381;47.1748;47.17;160.8756;74.2596;35.2288;36.4583;26.0721;1.46;1.25;1.32;92.338;22.293;37.409;20.079;16.060845;13.736133;14.180087;0.81486;1.32965;3.65593;2.53161;0.17832;0.08055;0.52554;0.40235;0.16325;0.07886;0.45949;0.35667;18.154052;18.211486;19.164982;1777.77;1737.74;189.7765;32.6929;52.455885;37.422463;41.210115;286.65;146.25;192.78;225.58;4.8195;1.48;-0.45219;1.17574;-0.11475;0.14845;-0.42291;-0.203;-0.20299;-0.52486;-0.46035;0.04804;-0.03071;-0.52464;0.56788;15.544507;19.41175;51.210856;176.62
37;real37;78;361.53;168.09;213.48;1.8;1;1;1.7;1;1.817;1.504;3.149;1;1;3.151;1;3.157;3.274;120.940405;120.9396031;116.1438561;116.3292534;121.4086465;122.2539523;126.2348287;118.1199919;116.4892413;120.8506638;122.6600143;1.338979718;1.570438089;1.085892283;1.327736582;1.4003269;1.40035663;1.085163955;1.483792999;1.491007931;1.511116717;1.338497201;1.469669383;1.269468076;5.842821642;177.5332905;178.7169472;100.4760342;139.4418877;19.30478889;3.8524;5.6129;1.1838;-0.39771;-0.28917;-0.2964;-0.26837;7.81;2;2;6.353;2;7.314;4.742;-0.01739;-0.03193;0.0069;0.01385;156.376;1.844458206;2.58622053;2.692640165;2.586235702;2.756114523;2.402163462;2.552736982;116.7915;33.2241;47.1748;47.17;160.8756;74.2596;34.333;36.4583;23.2094;1.5;1.25;1.32;92.338;21.199;37.409;20.079;16.610923;13.736133;14.180087;0.81486;0.42902;3.65593;2.53161;0.17832;0.08389;0.52554;0.40235;0.16325;0.07811;0.45949;0.35667;18.154052;18.211486;19.441712;1780.04;1737.74;203.6924;32.6929;57.413192;37.422463;41.210115;350.88;146.25;192.78;225.58;4.9137;1.48;-0.45011;1.17574;-0.11743;0.14577;-0.42291;-0.203;-0.20299;-0.52486;-0.46035;0.04938;-0.03071;-0.51532;0.56899;15.544507;19.41175;51.210856;176.62
38;real38;72;361.75;168.09;213.47;1.8;1;1;1.7;1;1.821;1.504;3.149;1;1;3.151;1;3.156;3.273;120.940405;120.9396031;116.1955958;116.3345651;121.426441;122.231;126.3175868;118.1199919;116.4880094;120.8904407;122.6213756;1.338715166;1.570438089;1.085823628;1.327881751;1.4003269;1.40035663;1.085109755;1.4838294;1.491103388;1.511291361;1.338522111;1.469707963;1.269273777;3.741725806;177.4797549;178.7034594;100.5202103;139.5239926;19.1008706;3.2938;5.6376;1.1841;-0.39731;-0.28897;-0.29591;-0.26804;7.81;2;2;6.353;2;7.315;4.742;-0.017;-0.03203;0.0074;0.01389;156.376;1.844406909;2.58622053;2.693816527;2.586235702;2.755065936;2.402163462;2.552949834;116.6669;33.0764;47.2095;47.2047;160.8175;74.4031;34.4197;36.5538;23.4183;1.5;1.25;1.32;92.332;21.174;37.409;20.078;16.614533;13.736133;14.180351;0.78486;0.42681;3.65593;2.53011;0.1841;0.08383;0.52554;0.40248;0.16675;0.078;0.45949;0.35658;18.154052;18.211486;19.441712;1780.64;1737.64;200.4499;31.5962;57.169592;37.509037;41.325655;350.94;146.25;192.78;225.59;4.8343;1.48;-0.44806;1.17618;-0.11735;0.14622;-0.42245;-0.2026;-0.2026;-0.52496;-0.45964;0.0491;-0.03022;-0.5124;0.56845;15.53672;19.41175;50.796459;176.62
39;real39;80;361.02;167.97;213.49;1.8;1;1;1.7;1;1.816;1.504;3.146;1;1;3.151;1;3.16;3.268;120.9034071;120.9016665;116.28882;116.264457;121.3343904;122.3877938;126.4013358;118.1949264;116.5076931;120.7823739;122.7099257;1.336887566;1.566128076;1.085404414;1.326700604;1.399651153;1.399652136;1.084808052;1.483197265;1.489672959;1.510592299;1.337471707;1.467761518;1.267070935;3.793920513;177.1929466;178.5406025;99.4067616;140.5353966;20.90656991;2.9488;5.1149;1.0306;-0.40397;-0.28643;-0.29209;-0.26635;7.807;2;2;6.353;2;7.311;4.74;-0.02225;-0.03334;0.00918;0.01694;156.376;1.843093756;2.581356795;2.68808616;2.581335499;2.757921738;2.401920262;2.551411966;115.8187;32.365;47.4605;47.4599;160.7429;75.0755;34.7038;36.6083;24.8257;1.5;1.25;1.32;92.01;21.157;37.381;20.047;16.606008;13.734472;14.178324;0.77363;0.43059;3.65768;2.53435;0.19105;0.08412;0.5263;0.40239;0.1718;0.07838;0.46013;0.35751;18.154052;18.211486;19.441712;1789.43;1743.5;139.4019;21.9663;56.466405;37.042189;40.914684;350.57;146.15;192.7;224.94;3.9797;1.48;-0.42169;1.17825;-0.11574;0.14822;-0.42391;-0.19399;-0.19399;-0.5213;-0.45174;0.04851;-0.0252;-0.47912;0.55774;15.510462;19.41175;51.034565;176.3
40;real40;86;288.94;225.51;135.99;2.016;1;1;1.7;1.534;1;1.53;5.9;1;1;3.148;3.171;1;2.705;125.1222726;125.4577137;116.2546249;114.7513616;117.4147895;127.7974084;125.8533108;109.4073469;113.796724;118.8555065;127.3392591;1.339142956;1.009930369;1.090730658;1.327077425;1.368832945;1.373349873;1.503036798;1.484515325;1.089538568;1.498799325;1.334413092;1.473255408;1.269925825;1.443011829;178.1783013;178.3645821;113.4318493;126.976859;6.300935915;0.0004;3.2697;2.1413;-0.32912;-0.2936;-0.24005;-0.296;8.795;2;2;6.354;4.12;2;3.862;-0.07917;-0.02944;0.01636;0.06485;193.249;2.195812437;2.117627581;2.362500647;2.124908896;3.164672691;2.238101588;2.179748041;122.135;32.9332;63.8355;52.4018;137.5407;51.1947;34.4802;55.4745;24.3277;1.44;1.3;1.22;29.876;21.888;11.997;20.135;15.947893;14.536504;12.169625;5.20658;0.94444;1.51985;9.37174;1.66963;0.10851;0.37722;1.5122;1.26422;0.10331;0.31067;1.42924;18.473852;17.261921;19.094678;1780.76;1777.73;197.9675;6.0088;50.959456;39.276564;35.208245;268.59;215.3;110.07;126.67;4.7761;1.15;-0.44477;0.4824;-0.13375;0.14754;-0.57415;-0.00642;0.14712;-0.1364;-0.22864;0.04947;-0.27168;-0.51307;0.56789;12.475339;17.602614;32.376548;109.17
41;real41;96;278.92;225.51;135.99;2.016;1;1;2.76;1.534;1;1.53;5.9;1;1;3.185;3.171;1;2.705;125.1222726;125.4577137;116.4143373;114.7513616;117.4147895;127.7974084;126.1521442;109.4073469;113.796724;118.8555065;127.3392591;1.337398424;1.009930369;1.090730658;1.329006969;1.368832945;1.373349873;1.503036798;1.484876712;1.089538568;1.498799325;1.334413092;1.472514917;1.269146395;0.871188235;178.1783013;178.3645821;124.5673486;117.5735222;8.957420832;0.0004;3.2697;2.1413;-0.32912;-0.29868;-0.24005;-0.296;8.795;2;2;4.074;4.12;2;3.862;-0.07917;-0.02839;0.01636;0.06485;193.249;2.195812437;2.117627581;2.362500647;2.124908896;3.164672691;2.238101588;2.179748041;117.0187;32.3798;63.8355;52.4018;137.5407;51.1947;36.0254;55.4745;27.1393;1.43;1.3;1.22;29.876;21.643;11.997;20.135;15.587971;14.536504;12.169625;5.20658;1.15747;1.51985;9.37174;1.66963;0.14035;0.37722;1.5122;1.26422;0.13387;0.31067;1.42924;18.473852;17.261921;18.988454;1780.19;1777.73;176.3969;6.0088;49.946245;39.276564;35.208245;256.39;215.3;110.07;126.67;4.6495;1.15;-0.44602;0.4824;-0.12024;0.15136;-0.57415;-0.00642;0.14712;-0.1364;-0.22864;0.04634;-0.27168;-0.51724;0.56556;12.475339;17.602614;32.376548;109.17
42;real42;92;278.92;225.51;214.38;2.016;1;1;2.76;1.554;1;1.504;5.9;1;1;3.185;3.551;1;2.69;125.1222726;125.4577137;116.4143373;114.7488451;117.465334;127.7838087;126.1521442;109.4073469;113.7772827;118.9433515;127.2727226;1.337398424;1.009930369;1.090721006;1.329006969;1.368832945;1.373349873;1.502545075;1.484876712;1.089662499;1.499658704;1.334131521;1.472514917;1.269146395;0.871188235;179.4452995;179.8990328;124.5673486;117.5735222;8.957420832;0.0004;3.2697;2.1333;-0.32912;-0.29868;-0.24005;-0.29369;8.795;2;2;4.074;8.567;2;3.904;-0.07917;-0.02839;0.01636;0.06532;193.249;2.195336261;2.117627581;2.364575888;2.124908896;3.163012381;2.238101588;2.180375937;117.0187;32.3798;63.8355;52.4018;137.0089;52.766;36.0254;55.1995;27.1393;1.43;1.3;1.37;29.876;21.643;11.997;20.126;15.587971;14.536504;14.151649;5.20658;1.15747;1.51985;2.62811;1.66963;0.14035;0.37722;0.39659;1.26422;0.13387;0.31067;0.36896;18.473852;18.014298;18.988454;1780.19;1777.29;176.3969;7.8172;49.946245;39.276564;42.793812;256.39;215.3;183.24;126.67;4.6495;1.15;-0.44602;0.4824;-0.12024;0.15136;-0.57415;-0.00642;0.14712;-0.13666;-0.22597;0.04634;-0.27003;-0.51724;0.56556;12.475339;17.602614;32.376548;109.17
43;real43;96;278.92;225.51;209.05;2.016;1;1;2.76;1.539;1;1.504;5.9;1;1;3.185;5.693;1;2.694;125.1222726;125.4577137;116.4143373;116.8665459;117.8672352;125.214706;126.1521442;109.4073469;115.822242;119.2431306;124.9003338;1.337398424;1.009930369;1.089040557;1.329006969;1.368832945;1.373349873;1.509772346;1.484876712;1.088697517;1.500602637;1.335256908;1.472514917;1.269146395;0.871188235;178.2153993;176.8612383;124.5673486;117.5735222;8.957420832;0.0004;3.2697;1.8714;-0.32912;-0.29868;-0.24005;-0.29794;8.795;2;2;4.074;6.295;2;3.91;-0.07917;-0.02839;0.01636;0.0543;193.249;2.225196311;2.117627581;2.376193585;2.124908896;3.064490359;2.238101588;2.204606214;117.0187;32.3798;63.8355;52.4018;138.3596;46.4174;36.0254;54.0322;27.1393;1.43;1.3;1.32;29.876;21.643;11.997;20.141;15.587971;14.536504;13.935071;5.20658;1.15747;1.51985;1.76829;1.66963;0.14035;0.37722;0.59331;1.26422;0.13387;0.31067;0.56527;18.473852;18.135875;18.988454;1780.19;1763.29;176.3969;7.3455;49.946245;39.276564;40.305312;256.39;215.3;187.8;126.67;4.6495;1.15;-0.44602;0.4824;-0.12024;0.15136;-0.57415;-0.00642;0.14712;-0.14013;-0.21543;0.04634;-0.26946;-0.51724;0.56556;12.475339;17.602614;32.376548;109.17
44;real44;95;278.92;225.51;197.98;2.016;1;1;2.76;1.529;1;1.504;5.9;1;1;3.185;6.077;1;2.69;125.1222726;125.4577137;116.4143373;114.5873225;117.9651249;127.4220006;126.1521442;109.4073469;113.8360573;118.6284153;127.5294142;1.337398424;1.009930369;1.089584258;1.329006969;1.368832945;1.373349873;1.506989977;1.484876712;1.089473804;1.499138687;1.334017389;1.472514917;1.269146395;0.871188235;178.3765365;178.7157396;124.5673486;117.5735222;8.957420832;0.0004;3.2697;1.9268;-0.32912;-0.29868;-0.24005;-0.28537;8.795;2;2;4.074;4.776;2;3.908;-0.07917;-0.02839;0.01636;0.0338;193.249;2.196499912;2.117627581;2.366991006;2.124908896;3.163031796;2.238101588;2.180469977;117.0187;32.3798;63.8355;52.4018;136.4363;53.1396;36.0254;55.4971;27.1393;1.43;1.3;1.31;29.876;21.643;11.997;20.12;15.587971;14.536504;13.901549;5.20658;1.15747;1.51985;3.10883;1.66963;0.14035;0.37722;0.47239;1.26422;0.13387;0.31067;0.43183;18.473852;18.075842;18.988454;1780.19;1775.88;176.3969;5.9067;49.946245;39.276564;39.942538;256.39;215.3;175.65;126.67;4.6495;1.15;-0.44602;0.4824;-0.12024;0.15136;-0.57415;-0.00642;0.14712;-0.13708;-0.22311;0.04634;-0.26668;-0.51724;0.56556;12.475339;17.602614;32.376548;109.17
45;real45;95;278.92;225.51;229.27;2.016;1;1;2.76;1.552;1;1.504;5.9;1;1;3.185;4.578;1;2.69;125.1222726;125.4577137;116.4143373;114.6875454;117.5770608;127.7315091;126.1521442;109.4073469;113.8463952;118.9237667;127.2186409;1.337398424;1.009930369;1.090623161;1.329006969;1.368832945;1.373349873;1.502113976;1.484876712;1.089399213;1.499522356;1.334104295;1.472514917;1.269146395;0.871188235;179.2737165;179.8117403;124.5673486;117.5735222;8.957420832;0.0004;3.2697;3.901;-0.32912;-0.29868;-0.24005;-0.29438;8.795;2;2;4.074;8.999;2;3.906;-0.07917;-0.02839;0.01636;0.06316;193.249;2.194149389;2.117627581;2.365937916;2.124908896;3.160496361;2.238101588;2.18087687;117.0187;32.3798;63.8355;52.4018;136.5757;53.1488;36.0254;54.714;27.1393;1.43;1.3;1.41;29.876;21.643;11.997;40.235;15.587971;14.536504;14.565812;5.20658;1.15747;1.51985;2.60417;1.66963;0.14035;0.37722;0.25694;1.26422;0.13387;0.31067;0.25103;18.473852;18.301324;18.988454;1780.19;1780.26;176.3969;6.7348;49.946245;39.276564;45.937421;256.39;215.3;194.92;126.67;4.6495;1.15;-0.44602;0.4824;-0.12024;0.15136;-0.57415;-0.00642;0.14712;-0.1367;-0.22713;0.04634;-0.2695;-0.51724;0.56556;12.475339;17.602614;32.376548;109.17
46;real46;96;278.92;225.51;288.88;2.016;1;1;2.76;1.568;1;1.504;5.9;1;1;3.185;4.454;1;2.69;125.1222726;125.4577137;116.4143373;114.5942636;117.4736633;127.9297632;126.1521442;109.4073469;113.816207;118.8200934;127.3519467;1.337398424;1.009930369;1.090834294;1.329006969;1.368832945;1.373349873;1.502221661;1.484876712;1.089498647;1.499255045;1.334098576;1.472514917;1.269146395;0.871188235;179.0168597;179.7604766;124.5673486;117.5735222;8.957420832;0.0004;3.2697;2.5209;-0.32912;-0.29868;-0.24005;-0.28852;8.795;2;2;4.074;12.583;2;3.905;-0.07917;-0.02839;0.01636;0.03647;193.249;2.193305451;2.117627581;2.362594144;2.124908896;3.167293613;2.238101588;2.180355371;117.0187;32.3798;63.8355;52.4018;136.2824;52.6509;36.0254;55.3314;27.1393;1.43;1.3;1.47;29.876;21.643;11.997;26.153;15.587971;14.536504;15.535639;5.20658;1.15747;1.51985;1.80297;1.66963;0.14035;0.37722;0.11611;1.26422;0.13387;0.31067;0.11535;18.473852;18.670563;18.988454;1780.19;1779.77;176.3969;6.9331;49.946245;39.276564;51.76474;256.39;215.3;258.1;126.67;4.6495;1.15;-0.44602;0.4824;-0.12024;0.15136;-0.57415;-0.00642;0.14712;-0.1376;-0.22815;0.04634;-0.27135;-0.51724;0.56556;12.475339;17.602614;32.376548;109.17
47;real47;94;278.92;225.51;326.05;2.016;1;1;2.76;1.942;1;1.504;5.9;1;1;3.185;4.66;1;2.694;125.1222726;125.4577137;116.4143373;116.6890593;118.1339016;125.113648;126.1521442;109.4073469;115.8651491;119.2737027;124.8267178;1.337398424;1.009930369;1.08881759;1.329006969;1.368832945;1.373349873;1.50941332;1.484876712;1.08851053;1.500894217;1.334701907;1.472514917;1.269146395;0.871188235;178.1446735;176.6292506;124.5673486;117.5735222;8.957420832;0.0004;3.2697;6.4637;-0.32912;-0.29868;-0.24005;-0.30142;8.795;2;2;4.074;13.815;2;3.91;-0.07917;-0.02839;0.01636;-0.0012;193.249;2.222651871;2.117627581;2.380410318;2.124908896;3.060172207;2.238101588;2.205219009;117.0187;32.3798;63.8355;52.4018;138.2335;46.9955;36.0254;53.2621;27.1393;1.43;1.3;1.54;29.876;21.643;11.997;62.072;15.587971;14.536504;16.093818;5.20658;1.15747;1.51985;0.74761;1.66963;0.14035;0.37722;0.10608;1.26422;0.13387;0.31067;0.09971;18.473852;19.053157;18.988454;1780.19;1768.05;176.3969;6.7031;49.946245;39.276564;56.567003;256.39;215.3;290.93;126.67;4.6495;1.15;-0.44602;0.4824;-0.12024;0.15136;-0.57415;-0.00642;0.14712;-0.14102;-0.21379;0.04634;-0.26864;-0.51724;0.56556;12.475339;17.602614;32.376548;109.17
48;real48;82;278.92;225.51;299.34;2.016;1;1;2.76;1.82;1;1.504;5.9;1;1;3.185;5.127;1;2.694;125.1222726;125.4577137;116.4143373;116.6724291;118.0205298;125.2489202;126.1521442;109.4073469;115.9121983;119.2496883;124.8021338;1.337398424;1.009930369;1.088925855;1.329006969;1.368832945;1.373349873;1.509317779;1.484876712;1.088481431;1.500675282;1.334727555;1.472514917;1.269146395;0.871188235;178.1485546;176.7031877;124.5673486;117.5735222;8.957420832;0.0004;3.2697;3.9948;-0.32912;-0.29868;-0.24005;-0.3003;8.795;2;2;4.074;12.268;2;3.909;-0.07917;-0.02839;0.01636;-0.03925;193.249;2.222460248;2.117627581;2.378180432;2.124908896;3.062380329;2.238101588;2.205547052;117.0187;32.3798;63.8355;52.4018;138.1061;46.8139;36.0254;53.1766;27.1393;1.43;1.3;1.47;29.876;21.643;11.997;50.029;15.587971;14.536504;15.721872;5.20658;1.15747;1.51985;1.0017;1.66963;0.14035;0.37722;0.13141;1.26422;0.13387;0.31067;0.12639;18.473852;18.915066;18.988454;1780.19;1768.77;176.3969;7.2489;49.946245;39.276564;52.24596;256.39;215.3;274.24;126.67;4.6495;1.15;-0.44602;0.4824;-0.12024;0.15136;-0.57415;-0.00642;0.14712;-0.14111;-0.2131;0.04634;-0.26972;-0.51724;0.56556;12.475339;17.602614;32.376548;109.17
49;real49;96;278.92;225.51;189.92;2.016;1;1;2.76;1.524;1;1.504;5.9;1;1;3.185;4.979;1;2.689;125.1222726;125.4577137;116.4143373;116.6779708;117.8158963;125.4713211;126.1521442;109.4073469;114.4965975;119.5132833;125.9798881;1.337398424;1.009930369;1.088810663;1.329006969;1.368832945;1.373349873;1.508861979;1.484876712;1.089257195;1.498345364;1.33469859;1.472514917;1.269146395;0.871188235;177.7233625;178.8212974;124.5673486;117.5735222;8.957420832;0.0004;3.2697;3.5573;-0.32912;-0.29868;-0.24005;-0.29713;8.795;2;2;4.074;7.543;2;3.903;-0.07917;-0.02839;0.01636;0.05662;193.249;2.222022806;2.117627581;2.37947993;2.124908896;3.090607332;2.238101588;2.187457805;117.0187;32.3798;63.8355;52.4018;137.2847;52.7325;36.0254;51.9274;27.1393;1.43;1.3;1.33;29.876;21.643;11.997;20.14;15.587971;14.536504;14.059966;5.20658;1.15747;1.51985;3.02238;1.66963;0.14035;0.37722;0.39697;1.26422;0.13387;0.31067;0.38503;18.473852;18.075606;18.988454;1780.19;1772.61;176.3969;2.4475;49.946245;39.276564;40.712087;256.39;215.3;160.45;126.67;4.6495;1.15;-0.44602;0.4824;-0.12024;0.15136;-0.57415;-0.00642;0.14712;-0.13951;-0.23731;0.04634;-0.26411;-0.51724;0.56556;12.475339;17.602614;32.376548;109.17
50;real50;94;278.92;225.51;155.73;2.016;1;1;2.76;1.535;1;1.522;5.9;1;1;3.185;3.169;1;4.191;125.1222726;125.4577137;116.4143373;114.4991899;117.4633746;128.0160093;126.1521442;109.4073469;114.3907097;118.0844667;127.5205225;1.337398424;1.009930369;1.091283374;1.329006969;1.368832945;1.373349873;1.503169784;1.484876712;1.089050833;1.503124715;1.335775929;1.472514917;1.269146395;0.871188235;179.8803252;178.8935225;124.5673486;117.5735222;8.957420832;0.0004;3.2697;2.0367;-0.32912;-0.29868;-0.24005;-0.29015;8.795;2;2;4.074;4.124;2;4.134;-0.07917;-0.02839;0.01636;0.07162;193.249;2.193373902;2.117627581;2.351790927;2.124908896;3.177278127;2.238101588;2.190301097;117.0187;32.3798;63.8355;52.4018;166.4975;52.7197;36.0254;57.1844;27.1393;1.43;1.3;1.27;29.876;21.643;11.997;19.804;15.587971;14.536504;12.665583;5.20658;1.15747;1.51985;8.2294;1.66963;0.14035;0.37722;0.97511;1.26422;0.13387;0.31067;0.93612;18.473852;17.488211;18.988454;1780.19;1770.69;176.3969;1.8781;49.946245;39.276564;36.102342;256.39;215.3;128.34;126.67;4.6495;1.15;-0.44602;0.4824;-0.12024;0.15136;-0.57415;-0.00642;0.14712;-0.53405;-0.24111;0.04634;-0.24898;-0.51724;0.56556;12.475339;17.602614;32.376548;109.17
51;real51;92;278.92;203.41;155.73;2.019;1;1;2.76;1.535;1;1.522;5.451;1;1;3.185;3.169;1;4.191;125.1980219;125.5750127;116.4143373;114.4991899;117.4633746;128.0160093;126.1521442;109.221813;114.3907097;118.0844667;127.5205225;1.337398424;1.009255971;1.091283374;1.329006969;1.377487347;1.371195636;1.503169784;1.484876712;1.089050833;1.503124715;1.335775929;1.472514917;1.269146395;0.871188235;179.8803252;178.8935225;124.5673486;117.5735222;8.957420832;0.0004;2.799;2.0367;-0.32912;-0.29868;-0.24427;-0.29015;7.361;2;2;4.074;4.124;2;4.134;-0.07917;-0.02839;0.02743;0.07162;159.232;2.193373902;2.125734229;2.351790927;2.123435599;3.177278127;2.240833916;2.190301097;117.0187;32.3798;67.8995;52.9377;166.4975;52.7197;36.0254;57.1844;27.1393;1.43;1.29;1.27;29.876;21.643;12.033;19.804;15.587971;13.855861;12.665583;5.20658;1.15747;1.88473;8.2294;1.66963;0.14035;0.68908;0.97511;1.26422;0.13387;0.53502;0.93612;18.183469;17.488211;18.988454;1780.19;1770.69;176.3969;1.8781;49.946245;37.763188;36.102342;256.39;186.23;128.34;126.67;4.6495;1.15;-0.44602;0.47403;-0.12024;0.15136;-0.58406;-0.03967;0.14989;-0.53405;-0.24111;0.04634;-0.24898;-0.51724;0.56556;12.475339;17.602614;32.376548;109.17
52;real52;92;278.92;194.61;155.73;1.7;1;1;2.76;1.535;1;1.522;5.473;1;1;3.185;3.169;1;4.191;125.3052182;125.2202558;116.4143373;114.4991899;117.4633746;128.0160093;126.1521442;109.474526;114.3907097;118.0844667;127.5205225;1.337398424;1.009725042;1.091283374;1.329006969;1.379262005;1.379157963;1.503169784;1.484876712;1.089050833;1.503124715;1.335775929;1.472514917;1.269146395;0.871188235;179.8803252;178.8935225;124.5673486;117.5735222;8.957420832;0.0004;2.3368;2.0367;-0.32912;-0.29868;-0.24849;-0.29015;6.617;2;2;4.074;4.124;2;4.134;-0.07917;-0.02839;0.00432;0.07162;167.211;2.193373902;2.128767613;2.351790927;2.127879441;3.177278127;2.25228641;2.190301097;117.0187;32.3798;48.147;48.1312;166.4975;52.7197;36.0254;57.1844;27.1393;1.43;1.25;1.27;29.876;21.643;12.06;19.804;15.587971;13.901989;12.665583;5.20658;1.15747;2.26126;8.2294;1.66963;0.14035;0.59491;0.97511;1.26422;0.13387;0.471;0.93612;18.256775;17.488211;18.988454;1780.19;1770.69;176.3969;1.8781;49.946245;35.718958;36.102342;256.39;183.17;128.34;126.67;4.6495;1.15;-0.44602;0.47563;-0.12024;0.15136;-0.59117;0.17379;0.17382;-0.53405;-0.24111;0.04634;-0.24898;-0.51724;0.56556;12.475339;17.602614;32.376548;109.17
53;real53;90;278.92;245.3;135.99;2.129;1;1;2.76;1.534;1;1.53;5.893;1;1;3.185;3.171;1;2.705;125.1440351;125.5093191;116.4143373;114.7513616;117.4147895;127.7974084;126.1521442;109.3301005;113.796724;118.8555065;127.3392591;1.337398424;1.009863034;1.090730658;1.329006969;1.368089911;1.374328244;1.503036798;1.484876712;1.089538568;1.498799325;1.334413092;1.472514917;1.269146395;0.871188235;178.1783013;178.3645821;124.5673486;117.5735222;8.957420832;0.0004;3.0209;2.1413;-0.32912;-0.29868;-0.23873;-0.296;8.799;2;2;4.074;4.12;2;3.862;-0.07917;-0.02839;0.018;0.06485;207.276;2.195812437;2.117088993;2.362500647;2.126232551;3.164672691;2.237226373;2.179748041;117.0187;32.3798;64.9705;54.098;137.5407;51.1947;36.0254;55.4745;27.1393;1.43;1.34;1.22;29.876;21.643;12.003;20.135;15.587971;14.853429;12.169625;5.20658;1.15747;1.049;9.37174;1.66963;0.14035;0.34077;1.5122;1.26422;0.13387;0.26435;1.42924;18.578961;17.261921;18.988454;1780.19;1777.73;176.3969;6.0088;49.946245;41.874319;35.208245;256.39;233.52;110.07;126.67;4.6495;1.15;-0.44602;0.47781;-0.12024;0.15136;-0.57456;-0.00873;0.14179;-0.1364;-0.22864;0.04634;-0.27168;-0.51724;0.56556;12.475339;17.602614;32.376548;109.17
54;real54;92;278.92;231.22;135.99;2.022;1;1;2.76;1.534;1;1.53;5.896;1;1;3.185;3.171;1;2.705;125.1797654;125.4614833;116.4143373;114.7513616;117.4147895;127.7974084;126.1521442;109.3465948;113.796724;118.8555065;127.3392591;1.337398424;1.009992608;1.090730658;1.329006969;1.366346761;1.374425387;1.503036798;1.484876712;1.089538568;1.498799325;1.334413092;1.472514917;1.269146395;0.871188235;178.1783013;178.3645821;124.5673486;117.5735222;8.957420832;0.0004;5.0444;2.1413;-0.32912;-0.29868;-0.24312;-0.296;8.798;2;2;4.074;4.12;2;3.862;-0.07917;-0.02839;0.01306;0.06485;211.239;2.195812437;2.11592658;2.362500647;2.125988486;3.164672691;2.236113696;2.179748041;117.0187;32.3798;62.8178;55.9274;137.5407;51.1947;36.0254;55.4745;27.1393;1.43;1.31;1.22;29.876;21.643;11.996;20.135;15.587971;14.871199;12.169625;5.20658;1.15747;1.04868;9.37174;1.66963;0.14035;0.33429;1.5122;1.26422;0.13387;0.26014;1.42924;18.607478;17.261921;18.988454;1780.19;1777.73;176.3969;6.0088;49.946245;40.729517;35.208245;256.39;219.87;110.07;126.67;4.6495;1.15;-0.44602;0.48019;-0.12024;0.15136;-0.57261;-0.00063;0.13561;-0.1364;-0.22864;0.04634;-0.27168;-0.51724;0.56556;12.475339;17.602614;32.376548;109.17
55;real55;92;278.92;241.17;135.99;2.111;1;1;2.76;1.534;1;1.53;5.993;1;1;3.185;3.171;1;2.705;125.1571338;125.451126;116.4143373;114.7513616;117.4147895;127.7974084;126.1521442;109.380402;113.796724;118.8555065;127.3392591;1.337398424;1.010213135;1.090730658;1.329006969;1.368111041;1.371634331;1.503036798;1.484876712;1.089538568;1.498799325;1.334413092;1.472514917;1.269146395;0.871188235;178.1783013;178.3645821;124.5673486;117.5735222;8.957420832;0.0004;5.8193;2.1413;-0.32912;-0.29868;-0.24545;-0.296;8.79;2;2;4.074;4.12;2;3.862;-0.07917;-0.02839;0.0103;0.06485;227.694;2.195812437;2.117527696;2.362500647;2.123506582;3.164672691;2.235739317;2.179748041;117.0187;32.3798;62.9795;53.8777;137.5407;51.1947;36.0254;55.4745;27.1393;1.43;1.33;1.22;29.876;21.643;11.991;20.135;15.587971;15.138779;12.169625;5.20658;1.15747;0.818;9.37174;1.66963;0.14035;0.29441;1.5122;1.26422;0.13387;0.22175;1.42924;18.716881;17.261921;18.988454;1780.19;1777.73;176.3969;6.0088;49.946245;41.847085;35.208245;256.39;228.93;110.07;126.67;4.6495;1.15;-0.44602;0.48141;-0.12024;0.15136;-0.57098;-0.00045;0.14874;-0.1364;-0.22864;0.04634;-0.27168;-0.51724;0.56556;12.475339;17.602614;32.376548;109.17
56;real56;98;278.92;162.93;135.99;1.756;1;1;2.76;1.534;1;1.53;5.454;1;1;3.185;3.171;1;2.705;124.757736;125.5053405;116.4143373;114.7513616;117.4147895;127.7974084;126.1521442;109.7367905;113.796724;118.8555065;127.3392591;1.337398424;1.010217657;1.090730658;1.329006969;1.371335113;1.373256039;1.503036798;1.484876712;1.089538568;1.498799325;1.334413092;1.472514917;1.269146395;0.871188235;178.1783013;178.3645821;124.5673486;117.5735222;8.957420832;0.0004;4.4664;2.1413;-0.32912;-0.29868;-0.25297;-0.296;6.673;2;2;4.074;4.12;2;3.862;-0.07917;-0.02839;0.01869;0.06485;151.596;2.195812437;2.116764893;2.362500647;2.12550848;3.164672691;2.244615885;2.179748041;117.0187;32.3798;66.284;55.1934;137.5407;51.1947;36.0254;55.4745;27.1393;1.43;1.22;1.22;29.876;21.643;11.986;20.135;15.587971;13.506793;12.169625;5.20658;1.15747;2.32621;9.37174;1.66963;0.14035;0.91458;1.5122;1.26422;0.13387;0.65648;1.42924;18.105231;17.261921;18.988454;1780.19;1777.73;176.3969;6.0088;49.946245;34.396252;35.208245;256.39;145.49;110.07;126.67;4.6495;1.15;-0.44602;0.48218;-0.12024;0.15136;-0.57325;-0.03945;0.15463;-0.1364;-0.22864;0.04634;-0.27168;-0.51724;0.56556;12.475339;17.602614;32.376548;109.17
57;real57;84;278.92;194.61;135.99;1.7;1;1;2.76;1.534;1;1.53;5.473;1;1;3.185;3.171;1;2.705;125.3052182;125.2202558;116.4143373;114.7513616;117.4147895;127.7974084;126.1521442;109.474526;113.796724;118.8555065;127.3392591;1.337398424;1.009725042;1.090730658;1.329006969;1.379262005;1.379157963;1.503036798;1.484876712;1.089538568;1.498799325;1.334413092;1.472514917;1.269146395;0.871188235;178.1783013;178.3645821;124.5673486;117.5735222;8.957420832;0.0004;2.3368;2.1413;-0.32912;-0.29868;-0.24849;-0.296;6.617;2;2;4.074;4.12;2;3.862;-0.07917;-0.02839;0.00432;0.06485;167.211;2.195812437;2.128767613;2.362500647;2.127879441;3.164672691;2.25228641;2.179748041;117.0187;32.3798;48.147;48.1312;137.5407;51.1947;36.0254;55.4745;27.1393;1.43;1.25;1.22;29.876;21.643;12.06;20.135;15.587971;13.901989;12.169625;5.20658;1.15747;2.26126;9.37174;1.66963;0.14035;0.59491;1.5122;1.26422;0.13387;0.471;1.42924;18.256775;17.261921;18.988454;1780.19;1777.73;176.3969;6.0088;49.946245;35.718958;35.208245;256.39;183.17;110.07;126.67;4.6495;1.15;-0.44602;0.47563;-0.12024;0.15136;-0.59117;0.17379;0.17382;-0.1364;-0.22864;0.04634;-0.27168;-0.51724;0.56556;12.475339;17.602614;32.376548;109.17
58;real58;90;278.92;234.61;135.99;1.948;1;1;2.76;1.534;1;1.53;6.317;1;1;3.185;3.171;1;2.705;125.3392878;125.2463896;116.4143373;114.7513616;117.4147895;127.7974084;126.1521442;109.4143223;113.796724;118.8555065;127.3392591;1.337398424;1.010190549;1.090730658;1.329006969;1.377126541;1.376997952;1.503036798;1.484876712;1.089538568;1.498799325;1.334413092;1.472514917;1.269146395;0.871188235;178.1783013;178.3645821;124.5673486;117.5735222;8.957420832;0.0004;5.9352;2.1413;-0.32912;-0.29868;-0.25157;-0.296;7.498;2;2;4.074;4.12;2;3.862;-0.07917;-0.02839;-0.00953;0.06485;325.003;2.195812437;2.127511272;2.362500647;2.126527229;3.164672691;2.247943423;2.179748041;117.0187;32.3798;48.4925;48.4739;137.5407;51.1947;36.0254;55.4745;27.1393;1.43;1.33;1.22;29.876;21.643;12.049;20.135;15.587971;15.964139;12.169625;5.20658;1.15747;0.69659;9.37174;1.66963;0.14035;0.13231;1.5122;1.26422;0.13387;0.11119;1.42924;19.245113;17.261921;18.988454;1780.19;1777.73;176.3969;6.0088;49.946245;42.793455;35.208245;256.39;219.15;110.07;126.67;4.6495;1.15;-0.44602;0.48133;-0.12024;0.15136;-0.58346;0.17748;0.17753;-0.1364;-0.22864;0.04634;-0.27168;-0.51724;0.56556;12.475339;17.602614;32.376548;109.17
59;real59;98;278.92;309.76;135.99;1.794;1;1;2.76;1.534;1;1.53;8.535;1;1;3.185;3.171;1;2.705;125.2015678;125.5394759;116.4143373;114.7513616;117.4147895;127.7974084;126.1521442;109.2519508;113.796724;118.8555065;127.3392591;1.337398424;1.009127109;1.090730658;1.329006969;1.377185052;1.371023804;1.503036798;1.484876712;1.089538568;1.498799325;1.334413092;1.472514917;1.269146395;0.871188235;178.1783013;178.3645821;124.5673486;117.5735222;8.957420832;0.0004;3.6562;2.1413;-0.32912;-0.29868;-0.2454;-0.296;11.015;2;2;4.074;4.12;2;3.862;-0.07917;-0.02839;0.02742;0.06485;260.337;2.195812437;2.125379368;2.362500647;2.122838638;3.164672691;2.240865771;2.179748041;117.0187;32.3798;67.8226;53.4263;137.5407;51.1947;36.0254;55.4745;27.1393;1.43;1.49;1.22;29.876;21.643;42.011;20.135;15.587971;15.745165;12.169625;5.20658;1.15747;1.01048;9.37174;1.66963;0.14035;0.12959;1.5122;1.26422;0.13387;0.12127;1.42924;18.921026;17.261921;18.988454;1780.19;1777.73;176.3969;6.0088;49.946245;51.189123;35.208245;256.39;282.97;110.07;126.67;4.6495;1.15;-0.44602;0.47458;-0.12024;0.15136;-0.58385;-0.04396;0.15001;-0.1364;-0.22864;0.04634;-0.27168;-0.51724;0.56556;12.475339;17.602614;32.376548;109.17
60;real60;90;278.92;206.73;135.99;1.813;1;1;2.76;1.534;1;1.53;6.402;1;1;3.185;3.171;1;2.705;125.0939214;125.616342;116.4143373;114.7513616;117.4147895;127.7974084;126.1521442;109.2896283;113.796724;118.8555065;127.3392591;1.337398424;1.009458919;1.090730658;1.329006969;1.376101789;1.371713503;1.503036798;1.484876712;1.089538568;1.498799325;1.334413092;1.472514917;1.269146395;0.871188235;178.1783013;178.3645821;124.5673486;117.5735222;8.957420832;0.0004;6.6117;2.1413;-0.32912;-0.29868;-0.24905;-0.296;8.139;2;2;4.074;4.12;2;3.862;-0.07917;-0.02839;0.02489;0.06485;170.215;2.195812437;2.123657891;2.362500647;2.124468245;3.164672691;2.241066376;2.179748041;117.0187;32.3798;68.0767;52.8138;137.5407;51.1947;36.0254;55.4745;27.1393;1.43;1.3;1.22;29.876;21.643;27.343;20.135;15.587971;14.28913;12.169625;5.20658;1.15747;2.16367;9.37174;1.66963;0.14035;0.39905;1.5122;1.26422;0.13387;0.33833;1.42924;18.283566;17.261921;18.988454;1780.19;1777.73;176.3969;6.0088;49.946245;39.75421;35.208245;256.39;187.89;110.07;126.67;4.6495;1.15;-0.44602;0.47608;-0.12024;0.15136;-0.58205;-0.04187;0.15095;-0.1364;-0.22864;0.04634;-0.27168;-0.51724;0.56556;12.475339;17.602614;32.376548;109.17
61;real61;88;278.92;312.15;135.99;2.418;1;1;2.76;1.534;1;1.53;8.455;1;1;3.185;3.171;1;2.705;125.0763359;125.6461793;116.4143373;114.7513616;117.4147895;127.7974084;126.1521442;109.2752993;113.796724;118.8555065;127.3392591;1.337398424;1.009314529;1.090730658;1.329006969;1.376695197;1.371462742;1.503036798;1.484876712;1.089538568;1.498799325;1.334413092;1.472514917;1.269146395;0.871188235;178.1783013;178.3645821;124.5673486;117.5735222;8.957420832;0.0004;2.8849;2.1413;-0.32912;-0.29868;-0.24659;-0.296;11.123;2;2;4.074;4.12;2;3.862;-0.07917;-0.02839;-0.03976;0.06485;290.322;2.195812437;2.12391787;2.362500647;2.124389859;3.164672691;2.241147576;2.179748041;117.0187;32.3798;67.5408;53.383;137.5407;51.1947;36.0254;55.4745;27.1393;1.43;1.45;1.22;29.876;21.643;41.967;20.135;15.587971;15.972283;12.169625;5.20658;1.15747;0.83393;9.37174;1.66963;0.14035;0.11113;1.5122;1.26422;0.13387;0.1088;1.42924;19.084491;17.261921;18.988454;1780.19;1777.73;176.3969;6.0088;49.946245;50.389563;35.208245;256.39;296;110.07;126.67;4.6495;1.15;-0.44602;0.47527;-0.12024;0.15136;-0.58296;-0.04161;0.15038;-0.1364;-0.22864;0.04634;-0.27168;-0.51724;0.56556;12.475339;17.602614;32.376548;109.17
62;real62;98;278.92;147.24;135.99;1.698;1;1;2.76;1.534;1;1.53;5.456;1;1;3.185;3.171;1;2.705;125.1842013;125.4701646;116.4143373;114.7513616;117.4147895;127.7974084;126.1521442;109.3453659;113.796724;118.8555065;127.3392591;1.337398424;1.009687114;1.090730658;1.329006969;1.373915136;1.372843329;1.503036798;1.484876712;1.089538568;1.498799325;1.334413092;1.472514917;1.269146395;0.871188235;178.1783013;178.3645821;124.5673486;117.5735222;8.957420832;0.0004;3.0272;2.1413;-0.32912;-0.29868;-0.25066;-0.296;6.623;2;2;4.074;4.12;2;3.862;-0.07917;-0.02839;0.02688;0.06485;117.151;2.195812437;2.122679352;2.362500647;2.124350528;3.164672691;2.240975914;2.179748041;117.0187;32.3798;63.227;53.8784;137.5407;51.1947;36.0254;55.4745;27.1393;1.43;1.17;1.22;29.876;21.643;12.019;20.135;15.587971;12.675775;12.169625;5.20658;1.15747;3.88958;9.37174;1.66963;0.14035;1.64022;1.5122;1.26422;0.13387;1.15371;1.42924;17.723126;17.261921;18.988454;1780.19;1777.73;176.3969;6.0088;49.946245;31.974382;35.208245;256.39;131.98;110.07;126.67;4.6495;1.15;-0.44602;0.47558;-0.12024;0.15136;-0.58385;-0.03765;0.14266;-0.1364;-0.22864;0.04634;-0.27168;-0.51724;0.56556;12.475339;17.602614;32.376548;109.17
63;real63;91;278.92;167.12;135.99;1.813;1;1;2.76;1.534;1;1.53;5.45;1;1;3.185;3.171;1;2.705;125.2545911;125.6087399;116.4143373;114.7513616;117.4147895;127.7974084;126.1521442;109.1359856;113.796724;118.8555065;127.3392591;1.337398424;1.009277842;1.090730658;1.329006969;1.377667629;1.371568958;1.503036798;1.484876712;1.089538568;1.498799325;1.334413092;1.472514917;1.269146395;0.871188235;178.1783013;178.3645821;124.5673486;117.5735222;8.957420832;0.0004;2.8312;2.1413;-0.32912;-0.29868;-0.24417;-0.296;6.627;2;2;4.074;4.12;2;3.862;-0.07917;-0.02839;0.0281;0.06485;131.178;2.195812437;2.126446379;2.362500647;2.124110494;3.164672691;2.240091935;2.179748041;117.0187;32.3798;65.0904;53.3038;137.5407;51.1947;36.0254;55.4745;27.1393;1.43;1.22;1.22;29.876;21.643;12.042;20.135;15.587971;13.150523;12.169625;5.20658;1.15747;2.61246;9.37174;1.66963;0.14035;1.26936;1.5122;1.26422;0.13387;0.85882;1.42924;17.892761;17.261921;18.988454;1780.19;1777.73;176.3969;6.0088;49.946245;34.317722;35.208245;256.39;150.22;110.07;126.67;4.6495;1.15;-0.44602;0.47409;-0.12024;0.15136;-0.58626;-0.03722;0.14901;-0.1364;-0.22864;0.04634;-0.27168;-0.51724;0.56556;12.475339;17.602614;32.376548;109.17
64;real64;88;278.92;203.41;135.99;2.019;1;1;2.76;1.534;1;1.53;5.451;1;1;3.185;3.171;1;2.705;125.1980219;125.5750127;116.4143373;114.7513616;117.4147895;127.7974084;126.1521442;109.221813;113.796724;118.8555065;127.3392591;1.337398424;1.009255971;1.090730658;1.329006969;1.377487347;1.371195636;1.503036798;1.484876712;1.089538568;1.498799325;1.334413092;1.472514917;1.269146395;0.871188235;178.1783013;178.3645821;124.5673486;117.5735222;8.957420832;0.0004;2.799;2.1413;-0.32912;-0.29868;-0.24427;-0.296;7.361;2;2;4.074;4.12;2;3.862;-0.07917;-0.02839;0.02743;0.06485;159.232;2.195812437;2.125734229;2.362500647;2.123435599;3.164672691;2.240833916;2.179748041;117.0187;32.3798;67.8995;52.9377;137.5407;51.1947;36.0254;55.4745;27.1393;1.43;1.29;1.22;29.876;21.643;12.033;20.135;15.587971;13.855861;12.169625;5.20658;1.15747;1.88473;9.37174;1.66963;0.14035;0.68908;1.5122;1.26422;0.13387;0.53502;1.42924;18.183469;17.261921;18.988454;1780.19;1777.73;176.3969;6.0088;49.946245;37.763188;35.208245;256.39;186.23;110.07;126.67;4.6495;1.15;-0.44602;0.47403;-0.12024;0.15136;-0.58406;-0.03967;0.14989;-0.1364;-0.22864;0.04634;-0.27168;-0.51724;0.56556;12.475339;17.602614;32.376548;109.17
65;real65;98;278.74;152.52;202.66;1.7;1;1.546;2.76;1.35;1;1.504;3.148;1;4.851;3.185;1.35;1;2.694;120.9325701;120.9335908;116.3676912;111.7731295;128.9928831;119.2180052;126.3396469;118.1338391;117.9866664;117.741465;124.271641;1.338573338;1.570354163;1.489873954;1.329196289;1.401613721;1.401615102;1.35981426;1.484072116;1.086028741;1.495145437;1.328023557;1.473685614;1.269084818;3.437252809;178.6169701;179.622136;126.4556038;115.4544222;11.28040795;4.3304;3.2127;1.7086;-0.27602;-0.30025;-0.30052;-0.29636;6.367;2;7.189;4.074;2.63;2;3.906;-0.05759;-0.02907;0.01512;0.06614;121.931;2.360466353;2.587145028;2.778081496;2.587159209;2.834159497;2.404520719;2.222358997;117.1078;32.7982;49.3849;49.3856;139.8304;23.1413;35.6634;82.7296;27.024;1.43;1.21;1.37;14.098;21.734;37.467;20.197;15.586601;13.031613;13.919651;1.64259;1.14563;3.67097;4.9509;0.1155;0.14129;1.13506;0.35572;0.10802;0.13472;0.86701;0.34729;17.785818;18.055671;18.988454;1778.64;1818.11;199.4492;158.823;49.843328;35.160335;42.869668;256.34;132.65;169.76;287.7;4.8058;1.43;-0.4518;1.1833;-0.12015;0.14935;-0.42856;-0.22144;-0.22144;-0.13463;0.44654;0.04701;-0.36828;-0.52065;0.5676;15.617634;18.762775;48.096328;268.63
66;real66;94;278.74;232;202.66;2.068;1;1.546;2.76;1.35;1;1.504;3.149;1;4.851;3.185;1.35;1;2.694;121.161055;121.1613623;116.3676912;111.7731295;128.9928831;119.2180052;126.3396469;117.6775826;117.9866664;117.741465;124.271641;1.338573338;1.569348122;1.489873954;1.329196289;1.401171758;1.401173137;1.35981426;1.484072116;1.086028741;1.495145437;1.328023557;1.473685614;1.269084818;3.437252809;178.6169701;179.622136;126.4556038;115.4544222;11.28040795;4.3304;3.0829;1.7086;-0.27602;-0.30025;-0.273;-0.29636;10.682;2;7.189;4.074;2.63;2;3.906;-0.05759;-0.02907;-0.00625;0.06614;198.029;2.360466353;2.588780552;2.778081496;2.58878563;2.834159497;2.398007965;2.222358997;117.1078;32.7982;48.3554;48.3556;139.8304;23.1413;35.6634;82.7296;27.024;1.43;1.33;1.37;14.098;21.734;37.517;20.197;15.586601;14.707847;13.919651;1.64259;1.14563;2.24231;4.9509;0.1155;0.14129;0.24795;0.35572;0.10802;0.13472;0.22741;0.34729;18.51217;18.055671;18.988454;1778.64;1818.11;199.4492;158.823;49.843328;41.418037;42.869668;256.34;216;169.76;287.7;4.8058;1.43;-0.4518;1.1822;-0.12015;0.14935;-0.4272;-0.21315;-0.21315;-0.13463;0.44654;0.04701;-0.36828;-0.52065;0.5676;15.617634;18.762775;48.096328;268.63
67;real67;96;278.74;158.17;202.66;1.7;1;1.546;2.76;1.35;1;1.504;3.148;1;4.851;3.185;1.35;1;2.694;120.9539164;120.9536692;116.3676912;111.7731295;128.9928831;119.2180052;126.3396469;118.0924144;117.9866664;117.741465;124.271641;1.338573338;1.568738173;1.489873954;1.329196289;1.401840288;1.401841292;1.35981426;1.484072116;1.086028741;1.495145437;1.328023557;1.473685614;1.269084818;3.437252809;178.6169701;179.622136;126.4556038;115.4544222;11.28040795;4.3304;5.0218;1.7086;-0.27602;-0.30025;-0.29554;-0.29636;6.944;2;7.189;4.074;2.63;2;3.906;-0.05759;-0.02907;0.01834;0.06614;139.921;2.360466353;2.586179438;2.778081496;2.58617715;2.834159497;2.404387932;2.222358997;117.1078;32.7982;46.4535;46.454;139.8304;23.1413;35.6634;82.7296;27.024;1.43;1.23;1.37;14.098;21.734;37.458;20.197;15.586601;13.432901;13.919651;1.64259;1.14563;3.65602;4.9509;0.1155;0.14129;0.72878;0.35572;0.10802;0.13472;0.60766;0.34729;17.992064;18.055671;18.988454;1778.64;1818.11;199.4492;158.823;49.843328;36.382465;42.869668;256.34;137.19;169.76;287.7;4.8058;1.43;-0.4518;1.18367;-0.12015;0.14935;-0.4442;-0.20245;-0.20245;-0.13463;0.44654;0.04701;-0.36828;-0.52065;0.5676;15.617634;18.762775;48.096328;268.63
68;real68;96;278.74;192.43;202.66;1.701;1;1.546;2.76;1.35;1;1.504;5.174;1;4.851;3.185;1.35;1;2.694;120.8050696;121.0002979;116.3676912;111.7731295;128.9928831;119.2180052;126.3396469;118.1934621;117.9866664;117.741465;124.271641;1.338573338;1.57050554;1.489873954;1.329196289;1.401108287;1.401106049;1.35981426;1.484072116;1.086028741;1.495145437;1.328023557;1.473685614;1.269084818;3.437252809;178.6169701;179.622136;126.4556038;115.4544222;11.28040795;4.3304;2.9777;1.7086;-0.27602;-0.30025;-0.28857;-0.29636;6.362;2;7.189;4.074;2.63;2;3.906;-0.05759;-0.02907;0.01554;0.06614;149.985;2.360466353;2.585222288;2.778081496;2.587707701;2.834159497;2.404399671;2.222358997;117.1078;32.7982;49.1861;52.1679;139.8304;23.1413;35.6634;82.7296;27.024;1.43;1.3;1.37;14.098;21.734;37.499;20.197;15.586601;13.874245;13.919651;1.64259;1.14563;1.95103;4.9509;0.1155;0.14129;0.6624;0.35572;0.10802;0.13472;0.51825;0.34729;18.095929;18.055671;18.988454;1778.64;1818.11;199.4492;158.823;49.843328;39.80031;42.869668;256.34;169.25;169.76;287.7;4.8058;1.43;-0.4518;1.18343;-0.12015;0.14935;-0.42263;-0.21789;-0.23008;-0.13463;0.44654;0.04701;-0.36828;-0.52065;0.5676;15.617634;18.762775;48.096328;268.63
69;real69;92;278.74;205.14;202.66;1.817;1;1.546;2.76;1.35;1;1.504;3.224;1;4.851;3.185;1.35;1;2.694;120.8297455;120.8053114;116.3676912;111.7731295;128.9928831;119.2180052;126.3396469;118.3649385;117.9866664;117.741465;124.271641;1.338573338;1.574946511;1.489873954;1.329196289;1.401277361;1.401443244;1.35981426;1.484072116;1.086028741;1.495145437;1.328023557;1.473685614;1.269084818;3.437252809;178.6169701;179.622136;126.4556038;115.4544222;11.28040795;4.3304;5.3136;1.7086;-0.27602;-0.30025;-0.30931;-0.29636;9.262;2;7.189;4.074;2.63;2;3.906;-0.05759;-0.02907;-0.02186;0.06614;179.967;2.360466353;2.589612969;2.778081496;2.589442276;2.834159497;2.40698539;2.222358997;117.1078;32.7982;48.5092;48.4898;139.8304;23.1413;35.6634;82.7296;27.024;1.43;1.33;1.37;14.098;21.734;57.278;20.197;15.586601;14.332167;13.919651;1.64259;1.14563;2.59068;4.9509;0.1155;0.14129;0.34188;0.35572;0.10802;0.13472;0.30261;0.34729;18.369054;18.055671;18.988454;1778.64;1818.11;199.4492;158.823;49.843328;42.702827;42.869668;256.34;180.61;169.76;287.7;4.8058;1.43;-0.4518;1.18568;-0.12015;0.14935;-0.39326;-0.21965;-0.21989;-0.13463;0.44654;0.04701;-0.36828;-0.52065;0.5676;15.617634;18.762775;48.096328;268.63
70;real70;91;278.74;168.12;202.66;1.8;1;1.546;2.76;1.35;1;1.504;3.149;1;4.851;3.185;1.35;1;2.694;120.9633334;120.9628307;116.3676912;111.7731295;128.9928831;119.2180052;126.3396469;118.0738359;117.9866664;117.741465;124.271641;1.338573338;1.571485088;1.489873954;1.329196289;1.400533582;1.400537834;1.35981426;1.484072116;1.086028741;1.495145437;1.328023557;1.473685614;1.269084818;3.437252809;178.6169701;179.622136;126.4556038;115.4544222;11.28040795;4.3304;5.8768;1.7086;-0.27602;-0.30025;-0.29654;-0.29636;7.811;2;7.189;4.074;2.63;2;3.906;-0.05759;-0.02907;0.00688;0.06614;156.376;2.360466353;2.58761616;2.778081496;2.58761339;2.834159497;2.401915888;2.222358997;117.1078;32.7982;47.3923;47.3926;139.8304;23.1413;35.6634;82.7296;27.024;1.43;1.25;1.37;14.098;21.734;37.436;20.197;15.586601;13.736565;13.919651;1.64259;1.14563;3.65774;4.9509;0.1155;0.14129;0.52514;0.35572;0.10802;0.13472;0.45922;0.34729;18.154052;18.055671;18.988454;1778.64;1818.11;199.4492;158.823;49.843328;37.46581;42.869668;256.34;146.26;169.76;287.7;4.8058;1.43;-0.4518;1.18512;-0.12015;0.14935;-0.42352;-0.2037;-0.2037;-0.13463;0.44654;0.04701;-0.36828;-0.52065;0.5676;15.617634;18.762775;48.096328;268.63
71;real71;94;278.74;181.97;202.66;1.769;1;1.546;2.76;1.35;1;1.504;4.547;1;4.851;3.185;1.35;1;2.694;120.4470873;120.949414;116.3676912;111.7731295;128.9928831;119.2180052;126.3396469;118.6034765;117.9866664;117.741465;124.271641;1.338573338;1.571796009;1.489873954;1.329196289;1.394760425;1.404041966;1.35981426;1.484072116;1.086028741;1.495145437;1.328023557;1.473685614;1.269084818;3.437252809;178.6169701;179.622136;126.4556038;115.4544222;11.28040795;4.3304;1.6103;1.7086;-0.27602;-0.30025;-0.27183;-0.29636;7.087;2;7.189;4.074;2.63;2;3.906;-0.05759;-0.02907;0.01504;0.06614;151.957;2.360466353;2.576381336;2.778081496;2.590709754;2.834159497;2.406604608;2.222358997;117.1078;32.7982;62.6327;58.7355;139.8304;23.1413;35.6634;82.7296;27.024;1.43;1.28;1.37;14.098;21.734;44.456;20.197;15.586601;13.819575;13.919651;1.64259;1.14563;2.37683;4.9509;0.1155;0.14129;0.62955;0.35572;0.10802;0.13472;0.49932;0.34729;18.115581;18.055671;18.988454;1778.64;1818.11;199.4492;158.823;49.843328;38.445195;42.869668;256.34;159.59;169.76;287.7;4.8058;1.43;-0.4518;1.18549;-0.12015;0.14935;-0.41072;-0.26618;-0.25436;-0.13463;0.44654;0.04701;-0.36828;-0.52065;0.5676;15.617634;18.762775;48.096328;268.63
72;real72;94;278.74;206.98;202.66;1.751;1;1.546;2.76;1.35;1;1.504;5.393;1;4.851;3.185;1.35;1;2.694;120.4689781;121.0750736;116.3676912;111.7731295;128.9928831;119.2180052;126.3396469;118.4554785;117.9866664;117.741465;124.271641;1.338573338;1.572530769;1.489873954;1.329196289;1.397751628;1.401245332;1.35981426;1.484072116;1.086028741;1.495145437;1.328023557;1.473685614;1.269084818;3.437252809;178.6169701;179.622136;126.4556038;115.4544222;11.28040795;4.3304;7.2354;1.7086;-0.27602;-0.30025;-0.27762;-0.29636;7.791;2;7.189;4.074;2.63;2;3.906;-0.05759;-0.02907;0.00966;0.06614;178.983;2.360466353;2.579856138;2.778081496;2.590572027;2.834159497;2.404920398;2.222358997;117.1078;32.7982;56.3071;52.9169;139.8304;23.1413;35.6634;82.7296;27.024;1.43;1.33;1.37;14.098;21.734;63.046;20.197;15.586601;14.423748;13.919651;1.64259;1.14563;1.74225;4.9509;0.1155;0.14129;0.38858;0.35572;0.10802;0.13472;0.32964;0.34729;18.360834;18.055671;18.988454;1778.64;1818.11;199.4492;158.823;49.843328;42.012098;42.869668;256.34;183.37;169.76;287.7;4.8058;1.43;-0.4518;1.18564;-0.12015;0.14935;-0.41169;-0.22911;-0.22958;-0.13463;0.44654;0.04701;-0.36828;-0.52065;0.5676;15.617634;18.762775;48.096328;268.63
73;real73;90;278.74;199.42;202.66;1.7;1;1.546;2.76;1.35;1;1.504;4.366;1;4.851;3.185;1.35;1;2.694;120.7609541;120.8889078;116.3676912;111.7731295;128.9928831;119.2180052;126.3396469;118.3501382;117.9866664;117.741465;124.271641;1.338573338;1.570621565;1.489873954;1.329196289;1.379148586;1.425701153;1.35981426;1.484072116;1.086028741;1.495145437;1.328023557;1.473685614;1.269084818;3.437252809;178.6169701;179.622136;126.4556038;115.4544222;11.28040795;4.3304;3.1895;1.7086;-0.27602;-0.30025;-0.26279;-0.29636;8.491;2;7.189;4.074;2.63;2;3.906;-0.05759;-0.02907;-0.01046;0.06614;171.991;2.360466353;2.566059152;2.778081496;2.607415004;2.834159497;2.408746404;2.222358997;117.1078;32.7982;46.7156;53.4455;139.8304;23.1413;35.6634;82.7296;27.024;1.43;1.27;1.37;14.098;21.734;37.467;20.197;15.586601;14.163324;13.919651;1.64259;1.14563;2.13861;4.9509;0.1155;0.14129;0.46216;0.35572;0.10802;0.13472;0.38011;0.34729;18.300972;18.055671;18.988454;1778.64;1818.11;199.4492;158.823;49.843328;38.440134;42.869668;256.34;183.94;169.76;287.7;4.8058;1.43;-0.4518;1.18416;-0.12015;0.14935;-0.42465;-0.18288;-0.22584;-0.13463;0.44654;0.04701;-0.36828;-0.52065;0.5676;15.617634;18.762775;48.096328;268.63
74;real74;92;278.74;271.89;202.66;2.853;1;1.546;2.76;1.35;1;1.504;6.555;1;4.851;3.185;1.35;1;2.694;120.5688288;120.6569867;116.3676912;111.7731295;128.9928831;119.2180052;126.3396469;118.773575;117.9866664;117.741465;124.271641;1.338573338;1.569809407;1.489873954;1.329196289;1.402517175;1.404423543;1.35981426;1.484072116;1.086028741;1.495145437;1.328023557;1.473685614;1.269084818;3.437252809;178.6169701;179.622136;126.4556038;115.4544222;11.28040795;4.3304;2.6641;1.7086;-0.27602;-0.30025;-0.26196;-0.29636;8.97;2;7.189;4.074;2.63;2;3.906;-0.05759;-0.02907;0.00126;0.06614;238.094;2.360466353;2.582787451;2.778081496;2.585541508;2.834159497;2.415722478;2.222358997;117.1078;32.7982;57.6762;49.7928;139.8304;23.1413;35.6634;82.7296;27.024;1.43;1.38;1.37;14.098;21.734;37.469;20.197;15.586601;15.226699;13.919651;1.64259;1.14563;0.79817;4.9509;0.1155;0.14129;0.2678;0.35572;0.10802;0.13472;0.20955;0.34729;18.788264;18.055671;18.988454;1778.64;1818.11;199.4492;158.823;49.843328;44.448066;42.869668;256.34;258.83;169.76;287.7;4.8058;1.43;-0.4518;1.18374;-0.12015;0.14935;-0.42807;-0.19729;-0.21385;-0.13463;0.44654;0.04701;-0.36828;-0.52065;0.5676;15.617634;18.762775;48.096328;268.63
75;real75;97;278.74;192.29;202.66;1.846;1;1.546;2.76;1.35;1;1.504;4.275;1;4.851;3.185;1.35;1;2.694;120.6246961;120.989196;116.3676912;111.7731295;128.9928831;119.2180052;126.3396469;118.3858991;117.9866664;117.741465;124.271641;1.338573338;1.570311515;1.489873954;1.329196289;1.400182301;1.400000817;1.35981426;1.484072116;1.086028741;1.495145437;1.328023557;1.473685614;1.269084818;3.437252809;178.6169701;179.622136;126.4556038;115.4544222;11.28040795;4.3304;2.8242;1.7086;-0.27602;-0.30025;-0.28112;-0.29636;6.414;2;7.189;4.074;2.63;2;3.906;-0.05759;-0.02907;0.01935;0.06614;149.985;2.360466353;2.581956914;2.778081496;2.586450804;2.834159497;2.40506855;2.222358997;117.1078;32.7982;51.7784;51.9237;139.8304;23.1413;35.6634;82.7296;27.024;1.43;1.3;1.37;14.098;21.734;37.485;20.197;15.586601;13.897013;13.919651;1.64259;1.14563;1.50272;4.9509;0.1155;0.14129;0.80629;0.35572;0.10802;0.13472;0.52817;0.34729;18.095929;18.055671;18.988454;1778.64;1818.11;199.4492;158.823;49.843328;39.093763;42.869668;256.34;169.12;169.76;287.7;4.8058;1.43;-0.4518;1.18395;-0.12015;0.14935;-0.41714;-0.22671;-0.22673;-0.13463;0.44654;0.04701;-0.36828;-0.52065;0.5676;15.617634;18.762775;48.096328;268.63
76;real76;92;278.74;197.08;202.66;1.808;1;1.546;2.76;1.35;1;1.504;4.501;1;4.851;3.185;1.35;1;2.694;120.8121952;121.5335265;116.3676912;111.7731295;128.9928831;119.2180052;126.3396469;117.6539804;117.9866664;117.741465;124.271641;1.338573338;1.567310646;1.489873954;1.329196289;1.401732;1.397739566;1.35981426;1.484072116;1.086028741;1.495145437;1.328023557;1.473685614;1.269084818;3.437252809;178.6169701;179.622136;126.4556038;115.4544222;11.28040795;4.3304;5.4724;1.7086;-0.27602;-0.30025;-0.27649;-0.29636;8.438;2;7.189;4.074;2.63;2;3.906;-0.05759;-0.02907;0.01724;0.06614;186.402;2.360466353;2.583018225;2.778081496;2.588743148;2.834159497;2.395251695;2.222358997;117.1078;32.7982;48.6573;48.3971;139.8304;23.1413;35.6634;82.7296;27.024;1.43;1.31;1.37;14.098;21.734;44.031;20.197;15.586601;14.396144;13.919651;1.64259;1.14563;1.36528;4.9509;0.1155;0.14129;0.48302;0.35572;0.10802;0.13472;0.35762;0.34729;18.41795;18.055671;18.988454;1778.64;1818.11;199.4492;158.823;49.843328;40.330111;42.869668;256.34;173.12;169.76;287.7;4.8058;1.43;-0.4518;1.18341;-0.12015;0.14935;-0.44272;-0.21728;-0.19676;-0.13463;0.44654;0.04701;-0.36828;-0.52065;0.5676;15.617634;18.762775;48.096328;268.63
77;real77;98;278.74;177.4;202.66;1.757;1;1.546;2.76;1.35;1;1.504;4.382;1;4.851;3.185;1.35;1;2.694;121.0439918;120.7333451;116.3676912;111.7731295;128.9928831;119.2180052;126.3396469;118.2225317;117.9866664;117.741465;124.271641;1.338573338;1.568577531;1.489873954;1.329196289;1.402507244;1.40039075;1.35981426;1.484072116;1.086028741;1.495145437;1.328023557;1.473685614;1.269084818;3.437252809;178.6169701;179.622136;126.4556038;115.4544222;11.28040795;4.3304;4.6339;1.7086;-0.27602;-0.30025;-0.28922;-0.29636;6.938;2;7.189;4.074;2.63;2;3.906;-0.05759;-0.02907;0.01879;0.06614;153.948;2.360466353;2.587752732;2.778081496;2.581988936;2.834159497;2.405351627;2.222358997;117.1078;32.7982;45.6403;49.2307;139.8304;23.1413;35.6634;82.7296;27.024;1.43;1.27;1.37;14.098;21.734;37.48;20.197;15.586601;13.79828;13.919651;1.64259;1.14563;2.34018;4.9509;0.1155;0.14129;0.65159;0.35572;0.10802;0.13472;0.5113;0.34729;18.135139;18.055671;18.988454;1778.64;1818.11;199.4492;158.823;49.843328;37.798689;42.869668;256.34;155.31;169.76;287.7;4.8058;1.43;-0.4518;1.18357;-0.12015;0.14935;-0.43938;-0.20125;-0.21204;-0.13463;0.44654;0.04701;-0.36828;-0.52065;0.5676;15.617634;18.762775;48.096328;268.63
78;real78;92;278.74;184.67;202.66;1.789;1;1.546;2.76;1.35;1;1.504;4.36;1;4.851;3.185;1.35;1;2.694;124.515105;117.1744062;116.3676912;111.7731295;128.9928831;119.2180052;126.3396469;118.3083139;117.9866664;117.741465;124.271641;1.338573338;1.576971029;1.489873954;1.329196289;1.412382228;1.401911833;1.35981426;1.484072116;1.086028741;1.495145437;1.328023557;1.473685614;1.269084818;3.437252809;178.6169701;179.622136;126.4556038;115.4544222;11.28040795;4.3304;6.1651;1.7086;-0.27602;-0.30025;-0.29182;-0.29636;7.815;2;7.189;4.074;2.63;2;3.906;-0.05759;-0.02907;0.00686;0.06614;170.403;2.360466353;2.646833225;2.778081496;2.543917899;2.834159497;2.416217934;2.222358997;117.1078;32.7982;33.709;45.5583;139.8304;23.1413;35.6634;82.7296;27.024;1.43;1.27;1.37;14.098;21.734;35.839;20.197;15.586601;14.065289;13.919651;1.64259;1.14563;2.15236;4.9509;0.1155;0.14129;0.51136;0.35572;0.10802;0.13472;0.41528;0.34729;18.283092;18.055671;18.988454;1778.64;1818.11;199.4492;158.823;49.843328;38.426894;42.869668;256.34;163.93;169.76;287.7;4.8058;1.43;-0.4518;1.18456;-0.12015;0.14935;-0.42193;0.01649;-0.19843;-0.13463;0.44654;0.04701;-0.36828;-0.52065;0.5676;15.617634;18.762775;48.096328;268.63
79;real79;92;278.74;152.52;122.43;1.7;1;1.506;2.76;1.35;1;1.527;3.148;1;2.028;3.185;1.35;1;2.706;120.9325701;120.9335908;116.3676912;111.7149758;128.9076193;119.3769674;126.3396469;118.1338391;117.982884;117.7445729;124.2724378;1.338573338;1.570354163;1.486239321;1.329196289;1.401613721;1.401615102;1.358249769;1.484072116;1.085896806;1.495283514;1.327791189;1.473685614;1.269084818;3.437252809;179.8101886;179.807027;126.4556038;115.4544222;11.28040795;4.3304;3.2127;1.6166;-0.27602;-0.30025;-0.30052;-0.29756;6.367;2;2.97;4.074;2.63;2;3.874;-0.05759;-0.02907;0.01512;0.06794;121.931;2.355320376;2.587145028;2.773663862;2.587159209;2.836600472;2.404520719;2.22233484;117.1078;32.7982;49.3849;49.3856;139.7725;26.6246;35.6634;82.1457;27.024;1.43;1.21;1.2;14.098;21.734;37.467;20.198;15.586601;13.031613;12.071147;1.64259;1.14563;3.67097;7.90707;0.1155;0.14129;1.13506;1.89501;0.10802;0.13472;0.86701;1.64606;17.785818;17.32964;18.988454;1778.64;1822.99;199.4492;162.9734;49.843328;35.160335;33.244767;256.34;132.65;96.39;287.7;4.8058;1.43;-0.4518;1.1833;-0.12015;0.14935;-0.42856;-0.22144;-0.22144;-0.13513;0.44197;0.04701;-0.37392;-0.52065;0.5676;15.617634;18.762775;48.096328;268.63
80;real80;92;278.74;152.52;142.31;1.7;1;1.547;2.76;1.35;1;1.504;3.148;1;3.164;3.185;1.35;1;2.694;120.9325701;120.9335908;116.3676912;111.7463164;128.9881345;119.2505414;126.3396469;118.1338391;117.8342451;117.7723832;124.3928133;1.338573338;1.570354163;1.490506589;1.329196289;1.401613721;1.401615102;1.359537433;1.484072116;1.086128764;1.495300527;1.327751972;1.473685614;1.269084818;3.437252809;178.6749414;179.5119326;126.4556038;115.4544222;11.28040795;4.3304;3.2127;1.6095;-0.27602;-0.30025;-0.30052;-0.29701;6.367;2;4.133;4.074;2.63;2;3.906;-0.05759;-0.02907;0.01512;0.06641;121.931;2.36040351;2.587145028;2.778707343;2.587159209;2.83710745;2.404520719;2.220860904;117.1078;32.7982;49.3849;49.3856;139.4103;22.968;35.6634;82.675;27.024;1.43;1.21;1.25;14.098;21.734;37.467;20.189;15.586601;13.031613;12.57383;1.64259;1.14563;3.67097;6.70939;0.1155;0.14129;1.13506;1.20827;0.10802;0.13472;0.86701;1.11327;17.785818;17.54663;18.988454;1778.64;1819.89;199.4492;148.088;49.843328;35.160335;35.268204;256.34;132.65;114.73;287.7;4.8058;1.43;-0.4518;1.1833;-0.12015;0.14935;-0.42856;-0.22144;-0.22144;-0.13441;0.44147;0.04701;-0.36909;-0.52065;0.5676;15.617634;18.762775;48.096328;268.63
81;real81;96;278.74;152.52;259.77;1.7;1;1.504;2.76;1.35;1;1.504;3.148;1;8.31;3.185;1.35;1;2.694;120.9325701;120.9335908;116.3676912;111.6564237;129.156159;119.1709066;126.3396469;118.1338391;117.952447;117.7747287;124.2709331;1.338573338;1.570354163;1.489799191;1.329196289;1.401613721;1.401615102;1.360284156;1.484072116;1.086074387;1.495326867;1.327909578;1.473685614;1.269084818;3.437252809;178.4548023;179.4219579;126.4556038;115.4544222;11.28040795;4.3304;3.2127;1.6584;-0.27602;-0.30025;-0.30052;-0.29574;6.367;2;6.19;4.074;2.63;2;3.908;-0.05759;-0.02907;0.01512;0.06655;121.931;2.359158919;2.587145028;2.781588107;2.587159209;2.833369373;2.404520719;2.222173915;117.1078;32.7982;49.3849;49.3856;139.4157;23.5362;35.6634;82.7196;27.024;1.43;1.21;1.45;14.098;21.734;37.467;20.195;15.586601;13.031613;15.047808;1.64259;1.14563;3.67097;1.23913;0.1155;0.14129;1.13506;0.24486;0.10802;0.13472;0.86701;0.21113;17.785818;18.435044;18.988454;1778.64;1817.8;199.4492;159.1534;49.843328;35.160335;49.534478;256.34;132.65;224.59;287.7;4.8058;1.43;-0.4518;1.1833;-0.12015;0.14935;-0.42856;-0.22144;-0.22144;-0.13443;0.4459;0.04701;-0.36802;-0.52065;0.5676;15.617634;18.762775;48.096328;268.63
82;real82;96;278.74;152.52;217.4;1.7;1;1.504;2.76;1.35;1;1.528;3.148;1;5.827;3.185;1.35;1;2.705;120.9325701;120.9335908;116.3676912;111.7855316;128.9863683;119.2193171;126.3396469;118.1338391;117.9828685;117.6793843;124.3376147;1.338573338;1.570354163;1.489889561;1.329196289;1.401613721;1.401615102;1.35957566;1.484072116;1.086068373;1.49541616;1.328333127;1.473685614;1.269084818;3.437252809;179.4772443;179.4844517;126.4556038;115.4544222;11.28040795;4.3304;3.2127;1.7078;-0.27602;-0.30025;-0.30052;-0.29591;6.367;2;6.158;4.074;2.63;2;3.875;-0.05759;-0.02907;0.01512;0.0653;121.931;2.360458727;2.587145028;2.777152924;2.587159209;2.835975573;2.404520719;2.222592324;117.1078;32.7982;49.3849;49.3856;140.3983;24.6468;35.6634;80.7282;27.024;1.43;1.21;1.35;14.098;21.734;37.467;20.197;15.586601;13.031613;14.28212;1.64259;1.14563;3.67097;2.33052;0.1155;0.14129;1.13506;0.36582;0.10802;0.13472;0.86701;0.34748;17.785818;18.301467;18.988454;1778.64;1819.18;199.4492;155.332;49.843328;35.160335;42.401709;256.34;132.65;192.65;287.7;4.8058;1.43;-0.4518;1.1833;-0.12015;0.14935;-0.42856;-0.22144;-0.22144;-0.13475;0.44673;0.04701;-0.36793;-0.52065;0.5676;15.617634;18.762775;48.096328;268.63
